!!!!SEGMENT: pl-wn--mus-iii-86-063_zelenski-wladyslaw--noc-majowa-op-49.krn
!!!cenid: 18xx:3727
!!!COM: Żeleński, Władysław
!!!COM-rismID: pe41024455
!!!CDT: 1837/07/06-1921/01/23
!!!CNT: Polish
!!!OTL: Noc majowa op. 49
!!!PDT:
!!!AGN:
!!!SMS-siglum: PL-Wn
!!!SMS-shelfmark: Mus.III.86.063
!!!SMS-shelfwork: W
!!!SMS-variant:
!!!SMS-altvar:
!!!NIFC-rismSourceID:
!!!NIFC-rismChildID:
!!!NIFC-islandoraID: none
!!!URL-pdf-islandora:
!!!URL-scan: https://polona2.pl/item/noc-majowa-na-chor-mieszany-i-glosy-solowe-z-towarzyszeniem-fortepianu-op-49,NDU5Mzc0ODE/0 @EN{Scan on Polona} @PL{Skany w portalu Polona}
!!!IIIF: https://polona2.pl/iiif/item/NDU5Mzc0ODE/manifest.json
!!!ONB-nifc:
!!!AIN: 1 bass 2 piano 3 soprn 1 tenor
!!!key: B-
**kern	**kern	**dynam	**kern	**text	**text	**dynam	**kern	**text	**text	**dynam	**kern	**text	**text	**dynam	**kern	**text	**text	**dynam	**kern	**text	**text	**dynam
*part7	*part6	*part6	*part5	*part5	*part5	*part5	*part4	*part4	*part4	*part4	*part3	*part3	*part3	*part3	*part2	*part2	*part2	*part2	*part1	*part1	*part1	*part1
*staff7	*staff6	*	*staff5	*staff5	*staff5	*	*staff4	*staff4	*staff4	*	*staff3	*staff3	*staff3	*	*staff2	*staff2	*staff2	*	*staff1	*staff1	*staff1	*
*I"Piano	*I"PIANOFORTE.	*	*I"Bassi.	*	*	*	*I"Tenori.	*	*	*	*I"Soprani 2.	*	*	*	*I"Soprani 1.	*	*	*	*I"Sopr. Solo.	*	*	*
*I'P-no	*I'pf	*	*I'B	*	*	*	*I'T	*	*	*	*I'S 2	*	*	*	*I'S	*	*	*	*I'S solo	*	*	*
*Ipiano	*Ipiano	*	*Ibass	*	*	*	*Itenor	*	*	*	*Isoprn	*	*	*	*Isoprn	*	*	*	*Isoprn	*	*	*
*ICklav	*ICklav	*	*ICvox	*	*	*	*ICvox	*	*	*	*ICvox	*	*	*	*ICvox	*	*	*	*ICvox	*	*	*
*	*	*	*	*	*	*	*	*	*	*	*	*	*	*	*	*	*	*	*IGsolo	*	*	*
*clefF4	*clefG2	*	*clefF4	*	*	*	*clefGv2	*	*	*	*clefG2	*	*	*	*clefG2	*	*	*	*clefG2	*	*	*
*k[b-e-]	*k[b-e-]	*	*k[b-e-]	*	*	*	*k[b-e-]	*	*	*	*k[b-e-]	*	*	*	*k[b-e-]	*	*	*	*k[b-e-]	*	*	*
*B-:	*B-:	*	*B-:	*	*	*	*B-:	*	*	*	*B-:	*	*	*	*B-:	*	*	*	*B-:	*	*	*
*M3/4	*M3/4	*	*M3/4	*	*	*	*M3/4	*	*	*	*M3/4	*	*	*	*M3/4	*	*	*	*M3/4	*	*	*
=1	=1	=1	=1	=1	=1	=1	=1	=1	=1	=1	=1	=1	=1	=1	=1	=1	=1	=1	=1	=1	=1	=1
*	*^	*	*	*	*	*	*	*	*	*	*	*	*	*	*	*	*	*	*	*	*	*
*xywh-#3:338,1704,2353,550	*xywh-#3:338,1704,2353,550	*xywh-#3:338,1704,2353,550	*	*xywh-#3:439,1558,2278,126	*	*	*	*xywh-#3:413,1353,2304,205	*	*	*	*xywh-#3:413,1174,2294,179	*	*	*	*xywh-#3:387,943,2320,231	*	*	*	*	*	*	*
!	!	!	!	!	!	!	!	!	!	!	!	!	!	!	!	!LO:TX:a:t=Andante non troppo lento.	!	!	!	!	!	!	!
[2.BBB-/ [2.BB-	4r	4ryy	p	2.r	.	.	.	2.r	.	.	.	2.r	.	.	.	2.r	.	.	.	2.ryy	.	.	.
.	[2ff/	(4a\ 4cc	.	.	.	.	.	.	.	.	.	.	.	.	.	.	.	.	.	.	.	.	.
.	.	4cc\ 4ee-	.	.	.	.	.	.	.	.	.	.	.	.	.	.	.	.	.	.	.	.	.
=2	=2	=2	=2	=2	=2	=2	=2	=2	=2	=2	=2	=2	=2	=2	=2	=2	=2	=2	=2	=2	=2	=2	=2
8BBB-/] 8BB-]	8ff/]	8b-\) 8dd	.	2.r	.	.	.	2.r	.	.	.	2.r	.	.	.	2.r	.	.	.	2.ryy	.	.	.
8r	8r	8ryy	.	.	.	.	.	.	.	.	.	.	.	.	.	.	.	.	.	.	.	.	.
[2BBB-/ [2BB-	[2dd/	(4f#X\ 4a	.	.	.	.	.	.	.	.	.	.	.	.	.	.	.	.	.	.	.	.	.
.	.	4a\ 4cc	.	.	.	.	.	.	.	.	.	.	.	.	.	.	.	.	.	.	.	.	.
=3	=3	=3	=3	=3	=3	=3	=3	=3	=3	=3	=3	=3	=3	=3	=3	=3	=3	=3	=3	=3	=3	=3	=3
8BBB-/] 8BB-]	8dd/]	8g\) 8b-	.	2.r	.	.	.	2.r	.	.	.	2.r	.	.	.	2.r	.	.	.	2.ryy	.	.	.
8r	8r	8ryy	.	.	.	.	.	.	.	.	.	.	.	.	.	.	.	.	.	.	.	.	.
[2BBB-/ [2BB-	[2b-/	(4.d\ 4.f#X	sfz >	.	.	.	.	.	.	.	.	.	.	.	.	.	.	.	.	.	.	.	.
.	.	8f#\ 8a	.	.	.	.	.	.	.	.	.	.	.	.	.	.	.	.	.	.	.	.	.
=4	=4	=4	=4	=4	=4	=4	=4	=4	=4	=4	=4	=4	=4	=4	=4	=4	=4	=4	=4	=4	=4	=4	=4
4BBB-/] 4BB-]	8b-/]	8e-\) 8g	]	2.r	.	.	.	2.r	.	.	.	2.r	.	.	.	2.r	.	.	.	2.ryy	.	.	.
.	8r	8ryy	.	.	.	.	.	.	.	.	.	.	.	.	.	.	.	.	.	.	.	.	.
4r	8r	2ryy	.	.	.	.	.	.	.	.	.	.	.	.	.	.	.	.	.	.	.	.	.
.	(8g/L	.	p	.	.	.	.	.	.	.	.	.	.	.	.	.	.	.	.	.	.	.	.
4r	8e-/	.	.	.	.	.	.	.	.	.	.	.	.	.	.	.	.	.	.	.	.	.	.
.	8d/J	.	.	.	.	.	.	.	.	.	.	.	.	.	.	.	.	.	.	.	.	.	.
*	*v	*v	*	*	*	*	*	*	*	*	*	*	*	*	*	*	*	*	*	*	*	*	*
=5	=5	=5	=5	=5	=5	=5	=5	=5	=5	=5	=5	=5	=5	=5	=5	=5	=5	=5	=5	=5	=5	=5
2.r	8c/L)	<	2.r	.	.	.	2.r	.	.	.	2.r	.	.	.	2.r	.	.	.	2.ryy	.	.	.
!LO:LB:g=original	!	!	!LO:LB:g=original	!	!	!	!	!	!	!	!LO:LB:g=original	!	!	!	!LO:LB:g=original	!	!	!LO:LB:g=original	!	!	!	!
.	(8B-/	.	.	.	.	.	.	.	.	.	.	.	.	.	.	.	.	.	.	.	.	.
.	8G/	.	.	.	.	.	.	.	.	.	.	.	.	.	.	.	.	.	.	.	.	.
.	8E-/	.	.	.	.	.	.	.	.	.	.	.	.	.	.	.	.	.	.	.	.	.
.	8D/	.	.	.	.	.	.	.	.	.	.	.	.	.	.	.	.	.	.	.	.	.
.	8C/J)	[[	.	.	.	.	.	.	.	.	.	.	.	.	.	.	.	.	.	.	.	.
!	!LO:LB:g=original	!	!	!	!	!	!	!	!	!	!	!	!	!	!	!	!	!	!	!	!	!
=6	=6	=6	=6	=6	=6	=6	=6	=6	=6	=6	=6	=6	=6	=6	=6	=6	=6	=6	=6	=6	=6	=6
*xywh-#3:286,3101,2392,494	*xywh-#3:286,3101,2392,494	*	*xywh-#3:315,2912,2363,188	*	*	*	*xywh-#3:315,2733,2346,179	*	*	*	*xywh-#3:367,2521,2294,211	*	*	*	*xywh-#3:367,2255,2323,266	*	*	*	*	*	*	*
!	!LO:TX:b:t=poco	!	!	!	!	!	!	!	!	!	!	!	!	!	!	!	!	!	!	!	!	!
[2.FF/ [2.E-	(((2.B-/ 2.e- 2.g	sfz	2.r	.	.	.	2.r	.	.	.	2.r	.	.	.	2.r	.	.	.	2.ryy	.	.	.
=7	=7	=7	=7	=7	=7	=7	=7	=7	=7	=7	=7	=7	=7	=7	=7	=7	=7	=7	=7	=7	=7	=7
((2.FF/] 2.E-]	((2.A/))) 2.c [2.f	>]	2.r	.	.	.	2.r	.	.	.	2.r	.	.	.	2.r	.	.	.	2.ryy	.	.	.
=8	=8	=8	=8	=8	=8	=8	=8	=8	=8	=8	=8	=8	=8	=8	=8	=8	=8	=8	=8	=8	=8	=8
4BB-/)) 4D	4B-/)) 4d 4f]	.	2.r	.	.	.	2.r	.	.	.	2.r	.	.	.	2.r	.	.	.	2.ryy	.	.	.
4r	8r	.	.	.	.	.	.	.	.	.	.	.	.	.	.	.	.	.	.	.	.	.
.	(8d/L	.	.	.	.	.	.	.	.	.	.	.	.	.	.	.	.	.	.	.	.	.
4r	8B-/	.	.	.	.	.	.	.	.	.	.	.	.	.	.	.	.	.	.	.	.	.
.	8G/J	.	.	.	.	.	.	.	.	.	.	.	.	.	.	.	.	.	.	.	.	.
=9	=9	=9	=9	=9	=9	=9	=9	=9	=9	=9	=9	=9	=9	=9	=9	=9	=9	=9	=9	=9	=9	=9
8r	8F/)	.	2.r	.	.	.	2.r	.	.	.	2.r	.	.	.	2.r	.	.	.	2.ryy	.	.	.
(8D/L	8r	.	.	.	.	.	.	.	.	.	.	.	.	.	.	.	.	.	.	.	.	.
8BB-/	4r	.	.	.	.	.	.	.	.	.	.	.	.	.	.	.	.	.	.	.	.	.
8GG/	.	.	.	.	.	.	.	.	.	.	.	.	.	.	.	.	.	.	.	.	.	.
8FF/	4r	.	.	.	.	.	.	.	.	.	.	.	.	.	.	.	.	.	.	.	.	.
8DD/J	.	.	.	.	.	.	.	.	.	.	.	.	.	.	.	.	.	.	.	.	.	.
=10	=10	=10	=10	=10	=10	=10	=10	=10	=10	=10	=10	=10	=10	=10	=10	=10	=10	=10	=10	=10	=10	=10
!	!	!	!	!	!	!LO:DY:a	!	!	!	!LO:DY:a	!	!	!	!LO:DY:a	!	!	!	!LO:DY:a	!	!	!	!
8BBB-/)	2.r	.	8BB-/	.	.	p	8B-\	.	.	p	8d/	Durch	.	p	8f/	W księ-	.	p	2.ryy	.	.	.
8r	.	.	8BB-/	.	.	.	8B-\	.	.	.	8d/	die	.	.	8f/	-ży-	.	.	.	.	.	.
4r	.	.	4BB-/	.	.	.	4A/	.	.	.	4c/	stil-	.	.	4f/	-co-	.	.	.	.	.	.
4r	.	.	4BB-/	.	.	.	4c\	.	.	.	4e-/	-le	.	.	4f/	-wą	.	.	.	.	.	.
=11	=11	=11	=11	=11	=11	=11	=11	=11	=11	=11	=11	=11	=11	=11	=11	=11	=11	=11	=11	=11	=11	=11
2.r	2.r	.	8BB-/	.	.	.	8B-\	.	.	.	8d/	Mon-	.	.	8f/	noc	.	.	2.ryy	.	.	.
*	*	*	*	*	*	*	*	*	*	*	*	*	*	*	*	*	*	*	*	*	*	*
!LO:PB:g=original	!LO:PB:g=original	!	!	!	!	!	!	!	!	!	!	!	!	!	!	!	!	!	!	!	!	!
.	.	.	8BB-/	.	.	.	8G/	.	.	.	8B-/	-des-	.	.	8f/	ma-	.	.	.	.	.	.
.	.	.	4BB-/	.	.	.	4A/	.	.	.	4c/	-hel-	.	.	4f/	-jo-	.	.	.	.	.	.
.	.	.	4BB-/	.	.	.	4c\	.	.	.	4e-/	-le	.	.	4f/	-wą,	.	.	.	.	.	.
!	!	!	!LO:PB:g=original	!	!	!	!LO:PB:g=original	!	!	!	!LO:PB:g=original	!	!	!	!LO:PB:g=original	!	!	!	!	!	!	!
=12	=12	=12	=12	=12	=12	=12	=12	=12	=12	=12	=12	=12	=12	=12	=12	=12	=12	=12	=12	=12	=12	=12
*xywh-#4:519,1506,2463,552	*xywh-#4:519,1506,2463,552	*	*xywh-#4:519,1242,2381,264	*	*	*	*xywh-#4:517,988,2384,253	*	*	*	*xywh-#4:517,759,2375,229	*	*	*	*xywh-#4:503,460,2389,298	*	*	*	*	*	*	*
2.r	2.r	.	8BB-/	.	.	.	8B-\	.	.	.	8d/	wal-	.	.	8f/	Pły-	.	.	2.ryy	.	.	.
.	.	.	8BB-/	.	.	.	8e-\	.	.	.	8c/	-let	.	.	8f/	-nie	.	.	.	.	.	.
!	!	!	!	!	!	!LO:DY:a	!	!	!	!LO:DY:a	!	!	!	!LO:DY:a	!	!	!	!LO:DY:a	!	!	!	!
.	.	.	4G\	.	.	<	4d\	.	.	<	4B-/	hin-	.	<	8b-/L	piosn-	.	<	.	.	.	.
.	.	.	.	.	.	.	.	.	.	.	.	.	.	.	8a/J	.	.	.	.	.	.	.
.	.	.	4E-\	.	.	[[	4G/	.	.	[[	4g/	-der	.	[[	8b-\L	-ka	.	.	.	.	.	.
.	.	.	.	.	.	.	.	.	.	.	.	.	.	.	8cc\J	.	.	[[	.	.	.	.
=13	=13	=13	=13	=13	=13	=13	=13	=13	=13	=13	=13	=13	=13	=13	=13	=13	=13	=13	=13	=13	=13	=13
*	*^	*	*	*	*	*	*	*	*	*	*	*	*	*	*	*	*	*	*	*	*	*
*	*	*xywh-#4:519,1506,2463,552	*	*	*	*	*	*	*	*	*	*	*	*	*	*	*	*	*	*	*	*	*
(2.DD/ [2.D	4r	4ryy	.	2D\	.	.	.	2A/	.	.	.	2f/	Sang,	.	.	2dd\	w dal,	.	.	2.ryy	.	.	.
.	(4a/	4f\	>	.	.	.	.	.	.	.	.	.	.	.	.	.	.	.	.	.	.	.	.
.	8ff/L	4a\	.	4r	.	.	.	4r	.	.	.	4r	.	.	.	4r	.	.	.	.	.	.	.
.	8dd/J	.	.	.	.	.	.	.	.	.	.	.	.	.	.	.	.	.	.	.	.	.	.
=14	=14	=14	=14	=14	=14	=14	=14	=14	=14	=14	=14	=14	=14	=14	=14	=14	=14	=14	=14	=14	=14	=14	=14
4GG/) 4D]	4b-/)	4g\	]	8G\	.	.	.	8d\	.	.	.	8g/	Spru-	.	.	8b-\	Dźwię-	.	.	2.ryy	.	.	.
.	.	.	.	8G\	.	.	.	8d\	.	.	.	8g/	-delt	.	.	8b-\	-ki	.	.	.	.	.	.
4r	4r	4ryy	.	4G\	.	.	.	4c\	.	.	.	4g/	auf	.	.	4a/	pły-	.	.	.	.	.	.
4r	4r	4ryy	.	4G\	.	.	.	4e-\	.	.	.	4g/	der	.	.	4cc\	-ną	.	.	.	.	.	.
*	*v	*v	*	*	*	*	*	*	*	*	*	*	*	*	*	*	*	*	*	*	*	*	*
=15	=15	=15	=15	=15	=15	=15	=15	=15	=15	=15	=15	=15	=15	=15	=15	=15	=15	=15	=15	=15	=15	=15
2.r	2.r	.	8G\	.	.	.	8d\	.	.	.	8g/	Lie-	.	.	8b-\	ni-	.	.	2.ryy	.	.	.
.	.	.	8G\	.	.	.	8d\	.	.	.	8g/	-der	.	.	8b-\	-by	.	.	.	.	.	.
.	.	.	4G\	.	.	.	4c\ 4e-	.	.	.	4g/	Quel-	.	.	4a/	sło-	.	.	.	.	.	.
.	.	.	4G\	.	.	.	4A\ 4c	.	.	.	4f#X/	-le	.	.	4ee-\	-wo,	.	.	.	.	.	.
=16	=16	=16	=16	=16	=16	=16	=16	=16	=16	=16	=16	=16	=16	=16	=16	=16	=16	=16	=16	=16	=16	=16
!	!	!	!	!	!	!LO:DY:a	!	!	!	!LO:DY:a	!	!	!	!LO:DY:a	!	!	!	!LO:DY:a	!	!	!	!
[2.GGG/ [2.GG	8r	<	4.G/	W księ-	Durch	<	8B-\	W księ-	Durch	<	8g/L	Durch	.	<	4.dd\	W księ-	.	<	2.ryy	.	.	.
!LO:LB:g=original	!	!	!	!	!	!	!	!	!	!	!	!	!	!	!	!	!	!	!	!	!	!
.	8d'/	.	.	.	.	.	8c\	-ży-	die	.	8a/	.	.	.	.	.	.	.	.	.	.	.
.	(8d/L 8b-	.	.	.	.	.	4.d\	-co-	stol-	.	8b-/J	.	.	.	.	.	.	.	.	.	.	.
!	!	!	!	!	!	!	!LO:LB:g=original	!	!	!	!	!	!	!	!	!	!	!	!	!	!	!
.	8c/ 8a	.	8A\	-ży-	die	.	.	.	.	.	8a/	die	.	.	8cc\	-ży-	.	.	.	.	.	.
.	8B-/) 8g	.	8B-\	-co-	stol-	.	.	.	.	.	8g/	stil-	.	.	8b-\	-co-	.	.	.	.	.	.
!	!	!	!	!	!	!	!	!	!	!	!LO:LB:g=original	!	!	!	!LO:LB:g=original	!	!	!	!	!	!	!
.	8A'/J 8c 8f#X	[[	8c\	-wą	-le	.	8e-\	-wą	-le	.	8f#X/	-le	.	.	8a/	-wą	.	.	.	.	.	.
!	!LO:LB:g=original	!	!	!LO:LB:g=original	!	!	!	!	!	!	!	!LO:LB:g=original	!	!	!	!LO:LB:g=original	!	!	!	!	!	!
=17	=17	=17	=17	=17	=17	=17	=17	=17	=17	=17	=17	=17	=17	=17	=17	=17	=17	=17	=17	=17	=17	=17
*xywh-#4:519,2986,2341,621	*xywh-#4:519,2986,2341,621	*	*xywh-#4:519,2775,2367,210	*	*	*	*xywh-#4:514,2591,2373,184	*	*	*	*xywh-#4:471,2375,2418,226	*	*	*	*xywh-#4:511,2106,2378,269	*	*	*	*	*	*	*
4GGG/_ 4GG_	(8B-'/L 8d 8g	.	8B-\	.	.	.	8d\	.	.	.	8g/	Mon-	.	.	8b-\	noc	.	.	2.ryy	.	.	.
.	8c'/J 8f#X 8a	.	8A\	.	.	.	8c\	.	.	.	8a/	-des-	.	.	8cc\	ma-	.	.	.	.	.	.
8GGG/] 8GG]	8d/) 8g 8b-	.	8G\	.	.	.	8B-\	.	.	.	8b-\	-hel-	.	.	8dd\	-jo-	.	.	.	.	.	.
8r	8r	.	8A\	.	.	.	8c\	.	.	.	8a/	-le	.	.	8cc\	-wą,	.	.	.	.	.	.
4r	4r	.	8G\	.	.	.	8B-\	.	.	.	8g/	Weh-	.	.	8dd\	Ni-	.	.	.	.	.	.
.	.	.	8C#X/	.	.	[[	8B-\	.	.	[[	8g/	-muth-	.	[[	8een\	-by	.	[[	.	.	.	.
=18	=18	=18	=18	=18	=18	=18	=18	=18	=18	=18	=18	=18	=18	=18	=18	=18	=18	=18	=18	=18	=18	=18
2.r	2.r	.	2D\	.	.	.	2A/	.	.	.	2f/	-voll,	.	.	2ff\	łzy,	.	.	2.ryy	.	.	.
!	!	!	!	!	!	!LO:DY:a	!	!	!	!LO:DY:a	!	!	!	!LO:DY:a	!	!	!	!LO:DY:a	!	!	!	!
.	.	.	8G\	.	.	p	8d\	.	.	p	8f/	weh-	.	p	8b-\	ni-	.	p	.	.	.	.
.	.	.	8G\	.	.	.	8c\	.	.	.	8f/	-muth-	.	.	8a/	-by	.	.	.	.	.	.
=19	=19	=19	=19	=19	=19	=19	=19	=19	=19	=19	=19	=19	=19	=19	=19	=19	=19	=19	=19	=19	=19	=19
!	!	!	!	!	!	!LO:DY:a	!	!	!	!LO:DY:a	!	!	!	!LO:DY:a	!	!	!	!LO:DY:a	!	!	!	!
(2GG/	4r	.	2G\	.	.	<	2B-\	.	.	<	2f/	-voll	.	<	2dd\	łzy	.	<	2.ryy	.	.	.
.	(4B-/ 4d	<	.	.	.	.	.	.	.	.	.	.	.	.	.	.	.	.	.	.	.	.
!	!	!	!	!	!	!LO:DY:a	!	!	!	!LO:DY:a	!	!	!	!LO:DY:a	!	!	!	!LO:DY:a	!	!	!	!
4CC/ [4C	4B-/ 4en	[ > ]]	4C/	.	.	[ > ]]	8G/L	.	.	[ >	4en/	und	.	[ > ]]	8b-/L	i	.	[ >	.	.	.	.
.	.	.	.	.	.	.	8B-/J	.	.	]]	.	.	.	.	8g/J	.	.	]]	.	.	.	.
=20	=20	=20	=20	=20	=20	=20	=20	=20	=20	=20	=20	=20	=20	=20	=20	=20	=20	=20	=20	=20	=20	=20
8FF/) 8C]	8A/) 8f	.	4F\	.	.	.	4A/	.	.	.	4c/	bang.	.	.	4f/	żal.	.	.	2.ryy	.	.	.
8r	8gg\L	p	.	.	.	.	.	.	.	.	.	.	.	.	.	.	.	.	.	.	.	.
2r	8ee-\	.	2r	.	.	.	4r	.	.	.	2r	.	.	.	4r	.	.	.	.	.	.	.
.	8dd\	.	.	.	.	.	.	.	.	.	.	.	.	.	.	.	.	.	.	.	.	.
.	8cc\	.	.	.	.	.	4r	.	.	.	.	.	.	.	4r	.	.	.	.	.	.	.
.	8b-\J	.	.	.	.	.	.	.	.	.	.	.	.	.	.	.	.	.	.	.	.	.
=21	=21	=21	=21	=21	=21	=21	=21	=21	=21	=21	=21	=21	=21	=21	=21	=21	=21	=21	=21	=21	=21	=21
*	*^	*	*	*	*	*	*	*	*	*	*	*	*	*	*	*	*	*	*	*	*	*
*xywh-#5:333,1398,2363,611	*xywh-#5:333,1398,2363,611	*xywh-#5:333,1398,2363,611	*	*xywh-#5:354,1202,2342,196	*	*	*	*xywh-#5:354,1005,2318,196	*	*	*	*xywh-#5:349,763,2323,241	*	*	*	*xywh-#5:349,519,2294,244	*	*	*	*	*	*	*
2.r	4a/	8ryy	<	2.r	.	.	.	2.r	.	.	.	2.r	.	.	.	2.r	.	.	.	2.ryy	.	.	.
!LO:PB:g=original	!	!	!	!LO:PB:g=original	!	!	!	!LO:PB:g=original	!	!	!	!LO:PB:g=original	!	!	!	!LO:PB:g=original	!	!	!	!	!	!	!
.	.	(8g\L	.	.	.	.	.	.	.	.	.	.	.	.	.	.	.	.	.	.	.	.	.
.	(8cc/L	8e-\	.	.	.	.	.	.	.	.	.	.	.	.	.	.	.	.	.	.	.	.	.
.	8dd/	8d\	.	.	.	.	.	.	.	.	.	.	.	.	.	.	.	.	.	.	.	.	.
.	8ee-/	8c\	.	.	.	.	.	.	.	.	.	.	.	.	.	.	.	.	.	.	.	.	.
.	8g/J	8B-\J	.	.	.	.	.	.	.	.	.	.	.	.	.	.	.	.	.	.	.	.	.
!	!LO:PB:g=original	!LO:PB:g=original	!	!	!	!	!	!	!	!	!	!	!	!	!	!	!	!	!	!	!	!	!
=22	=22	=22	=22	=22	=22	=22	=22	=22	=22	=22	=22	=22	=22	=22	=22	=22	=22	=22	=22	=22	=22	=22	=22
*	*	*	*	*	*	*	*	*	*	*	*	*	*	*	*	*	*	*	*	*	*	*	*
8r	8cc/)	8A\)	[	2.r	.	.	.	2.r	.	.	.	2.r	.	.	.	2.r	.	.	.	2.ryy	.	.	.
(8G\L	8r	8ryy	.	.	.	.	.	.	.	.	.	.	.	.	.	.	.	.	.	.	.	.	.
8E-\	(8A/L 8f	2ryy	<	.	.	.	.	.	.	.	.	.	.	.	.	.	.	.	.	.	.	.	.
8D\	8B-/ 8g	.	.	.	.	.	.	.	.	.	.	.	.	.	.	.	.	.	.	.	.	.	.
8C\	8c/ 8a	.	.	.	.	.	.	.	.	.	.	.	.	.	.	.	.	.	.	.	.	.	.
8BB-\J	8d/J 8b-	.	.	.	.	.	.	.	.	.	.	.	.	.	.	.	.	.	.	.	.	.	.
=23	=23	=23	=23	=23	=23	=23	=23	=23	=23	=23	=23	=23	=23	=23	=23	=23	=23	=23	=23	=23	=23	=23	=23
*^	*	*	*	*	*	*	*	*	*	*	*	*	*	*	*	*	*	*	*	*	*	*	*
*	*xywh-#5:333,1398,2363,611	*	*	*	*	*	*	*	*	*	*	*	*	*	*	*	*	*	*	*	*	*	*	*
8AA/)	8r	8e-/) 8cc	2ryy	[	2.r	.	.	.	2.r	.	.	.	2.r	.	.	.	2.r	.	.	.	2.ryy	.	.	.
8r	(8GG\L	8r	.	.	.	.	.	.	.	.	.	.	.	.	.	.	.	.	.	.	.	.	.	.
4F/	8EE-\	[2f/	.	>	.	.	.	.	.	.	.	.	.	.	.	.	.	.	.	.	.	.	.	.
.	8DD\	.	.	.	.	.	.	.	.	.	.	.	.	.	.	.	.	.	.	.	.	.	.	.
(8G/L	8CC\	.	(4e-\	.	.	.	.	.	.	.	.	.	.	.	.	.	.	.	.	.	.	.	.	.
8A/J	8FF\J	.	.	.	.	.	.	.	.	.	.	.	.	.	.	.	.	.	.	.	.	.	.	.
*v	*v	*	*	*	*	*	*	*	*	*	*	*	*	*	*	*	*	*	*	*	*	*	*	*
*	*v	*v	*	*	*	*	*	*	*	*	*	*	*	*	*	*	*	*	*	*	*	*	*
=24	=24	=24	=24	=24	=24	=24	=24	=24	=24	=24	=24	=24	=24	=24	=24	=24	=24	=24	=24	=24	=24	=24
!	!	!	!	!	!	!	!LO:TX:a:t=dolce	!	!	!	!LO:TX:a:t=dolce	!	!	!	!LO:TX:a:t=dolce	!	!	!	!	!	!	!
8BBB-\)	8B-/)) 8d 8f]	]	2.r	.	.	.	8B-\	.	.	.	8f/	Hol-	.	.	8dd\	Rze-	.	.	2.ryy	.	.	.
(8B-\ 8d	8f\L 8ff	pp	.	.	.	.	8B-\	.	.	.	8f/	-de	.	.	8dd\	-wną	.	.	.	.	.	.
4A\ 4c	8f\ 8ff	.	.	.	.	.	4A/	.	.	.	4f/	Wei-	.	.	4cc\	piosn-	.	.	.	.	.	.
.	8f\ 8ff	.	.	.	.	.	.	.	.	.	.	.	.	.	.	.	.	.	.	.	.	.
4A\ 4c	8f\ 8ff	.	.	.	.	.	4c\	.	.	.	4f/	-sen,	.	.	4ee-\	-kę	.	.	.	.	.	.
.	8f\J 8ff	.	.	.	.	.	.	.	.	.	.	.	.	.	.	.	.	.	.	.	.	.
=25	=25	=25	=25	=25	=25	=25	=25	=25	=25	=25	=25	=25	=25	=25	=25	=25	=25	=25	=25	=25	=25	=25
*^	*	*	*	*	*	*	*	*	*	*	*	*	*	*	*	*	*	*	*	*	*	*
*	*xywh-#5:333,1398,2363,611	*	*	*	*	*	*	*	*	*	*	*	*	*	*	*	*	*	*	*	*	*	*
8B-\L) 8d	2ryy	8f\L 8ff	.	2.r	.	.	.	8B-\	.	.	.	8f/	su-	.	.	8dd\	sło-	.	.	2.ryy	.	.	.
8B-\J 8d	.	8f\ 8ff	.	.	.	.	.	8B-\	.	.	.	8f/	-sse	.	.	8dd\	-wik	.	.	.	.	.	.
4A/ 4c	.	8f\ 8ff	.	.	.	.	.	4A/	.	.	.	4f/	Trau-	.	.	4cc\	śpie-	.	.	.	.	.	.
.	.	8f\ 8ff	.	.	.	.	.	.	.	.	.	.	.	.	.	.	.	.	.	.	.	.	.
8d/L	4D\	8f\ 8ff	.	.	.	.	.	4d\	.	.	.	4f/	-me,	.	.	4ff\	-wa,	.	.	.	.	.	.
8c/J	.	8f\J 8ff	.	.	.	.	.	.	.	.	.	.	.	.	.	.	.	.	.	.	.	.	.
=26	=26	=26	=26	=26	=26	=26	=26	=26	=26	=26	=26	=26	=26	=26	=26	=26	=26	=26	=26	=26	=26	=26	=26
*	*	*^	*	*	*	*	*	*	*	*	*	*	*	*	*	*	*	*	*	*	*	*	*
*	*	*	*xywh-#5:333,1398,2363,611	*	*	*	*	*	*	*	*	*	*	*	*	*	*	*	*	*	*	*	*	*
8B-/	4.G\	8ff/L	4.f\	.	2.r	.	.	.	4.G/	.	.	.	4.f/	Sanf-	.	.	4.b-\	E-	.	.	2.ryy	.	.	.
8ryy	.	(8dd/	.	.	.	.	.	.	.	.	.	.	.	.	.	.	.	.	.	.	.	.	.	.
2ryy	.	8b-/)	.	.	.	.	.	.	.	.	.	.	.	.	.	.	.	.	.	.	.	.	.	.
!LO:LB:g=original	!	!	!	!	!	!	!	!	!	!	!	!LO:DY:a	!	!	!	!LO:DY:a	!	!	!	!LO:DY:a	!	!	!	!
.	8A\L	8a/	8f\L	<	.	.	.	.	8A/	.	.	<	8f/	-te	.	<	8a/	-cho	.	<	.	.	.	.
.	8B-\	8g/	8f\	.	.	.	.	.	8B-\	.	.	.	8f/	Me-	.	.	8g/	nie-	.	.	.	.	.	.
.	8G\J	8b-/J	8en\J	.	.	.	.	.	8G/	.	.	[[	8en/	-lo	.	[[	8b-\	-sie	.	[[	.	.	.	.
!	!LO:LB:g=original	!LO:LB:g=original	!LO:LB:g=original	!	!	!	!	!	!LO:LB:g=original	!	!	!	!LO:LB:g=original	!	!	!	!LO:LB:g=original	!	!	!	!	!	!	!
*v	*v	*	*	*	*	*	*	*	*	*	*	*	*	*	*	*	*	*	*	*	*	*	*	*
*	*v	*v	*	*	*	*	*	*	*	*	*	*	*	*	*	*	*	*	*	*	*	*	*
=27	=27	=27	=27	=27	=27	=27	=27	=27	=27	=27	=27	=27	=27	=27	=27	=27	=27	=27	=27	=27	=27	=27
*xywh-#5:359,3000,2339,559	*xywh-#5:359,3000,2339,559	*	*xywh-#5:359,2772,2300,228	*	*	*	*xywh-#5:341,2567,2318,204	*	*	*	*xywh-#5:341,2341,2336,225	*	*	*	*xywh-#5:333,2010,2344,330	*	*	*	*	*	*	*
!	!	!	!	!	!	!	!	!	!	!LO:DY:a	!	!	!	!LO:DY:a	!	!	!	!LO:DY:a	!	!	!	!
8d\L	[4f/ [4a	[ >	4r	.	.	.	2d\	.	.	>	2f/	dein!	.	>	2a/	wtór,	.	>	2.ryy	.	.	.
8A\	.	.	.	.	.	.	.	.	.	.	.	.	.	.	.	.	.	.	.	.	.	.
8F\	8f/] 8a]	]	4r	.	.	.	.	.	.	.	.	.	.	.	.	.	.	.	.	.	.	.
8D\J	8r	.	.	.	.	.	.	.	.	.	.	.	.	.	.	.	.	.	.	.	.	.
!	!	!	!	!	!	!LO:DY:a	!	!	!	!LO:DY:a	!	!	!	!LO:DY:a	!	!	!	!LO:DY:a	!	!	!	!
8D\L 8d	8f/L 8b-	p	8D\	.	.	p	8d\	.	.	] p	8f/	Schwei-	.	] p	8b-\	Za-	.	] p	.	.	.	.
8D\J 8d	8f/J 8a	.	8D\	.	.	.	8d\	.	.	.	8f/	-gend	.	.	8a/	-słu-	.	.	.	.	.	.
=28	=28	=28	=28	=28	=28	=28	=28	=28	=28	=28	=28	=28	=28	=28	=28	=28	=28	=28	=28	=28	=28	=28
*^	*^	*	*	*	*	*	*	*	*	*	*	*	*	*	*	*	*	*	*	*	*	*
*	*xywh-#5:359,3000,2339,559	*	*xywh-#5:359,3000,2339,559	*	*	*	*	*	*	*	*	*	*	*	*	*	*	*	*	*	*	*	*	*
(4d/	(2E-\	8g/L	(2g\	.	4.E-\	.	.	.	(4d\	.	.	.	(4f/	lau-	.	.	4.g/	-cha-	.	.	2.ryy	.	.	.
.	.	(8gg/	.	.	.	.	.	.	.	.	.	.	.	.	.	.	.	.	.	.	.	.	.	.
4.c/)	.	8ee-/	.	<	.	.	.	.	8c\)	.	.	.	8e-/)	.	.	.	.	.	.	.	.	.	.	.
!	!	!	!	!	!	!	!	!LO:DY:a	!	!	!	!LO:DY:a	!	!	!	!LO:DY:a	!	!	!	!LO:DY:a	!	!	!	!
.	.	8cc/	.	.	8E-\	.	.	<	8c\	.	.	<	8e-/	-szen	.	<	8g/	-ne	.	<	.	.	.	.
.	8F\L)	8a/)	8e-\L)	.	8F\	.	.	.	8c\	.	.	.	8e-/	dort	.	.	8a/	sto-	.	.	.	.	.	.
8c/	8F\J	8a/J	8e-\J	.	8F\	.	.	[[	8c\	.	.	[[	8e-/	die	.	[[	8a/	-ją	.	[[	.	.	.	.
=29	=29	=29	=29	=29	=29	=29	=29	=29	=29	=29	=29	=29	=29	=29	=29	=29	=29	=29	=29	=29	=29	=29	=29	=29
!	!	!	!	!	!	!	!	!LO:DY:a	!	!	!	!LO:DY:a	!	!	!	!LO:DY:a	!	!	!	!LO:DY:a	!	!	!	!
8A/	8G\L	(4e-/ 4cc	2ryy	[	4G\	.	.	>	4A/	.	.	>	4e-/	Bau-	.	>	4cc\	drze-	.	>	2.ryy	.	.	.
2ryy	8GG\	.	.	.	.	.	.	.	.	.	.	.	.	.	.	.	.	.	.	.	.	.	.	.
.	8D\	4d/) 4b-	.	.	4G\	.	.	]	4B-\	.	.	]	4d/	-me,	.	]	4b-\	-wa,	.	]	.	.	.	.
.	8G\J	.	.	.	.	.	.	.	.	.	.	.	.	.	.	.	.	.	.	.	.	.	.	.
!	!	!LO:TX:t=P:problem=mixed beam	!	!	!	!	!	!LO:DY:a	!	!	!	!LO:DY:a	!	!	!	!LO:DY:a	!	!	!	!LO:DY:a	!	!	!	!
.	8F\L	8a\L 8dd	8f\	<	8F\	.	.	<	8f\	.	.	<	8a/	shwei-	.	<	8dd\	Za-	.	<	.	.	.	.
8f/	8F\J	8a/J 8cc	8ryy	.	8F\	.	.	[[	8f\	.	.	[[	8a/	-gend	.	[[	8cc\	-słu-	.	[[	.	.	.	.
=30	=30	=30	=30	=30	=30	=30	=30	=30	=30	=30	=30	=30	=30	=30	=30	=30	=30	=30	=30	=30	=30	=30	=30	=30
(4f/	(2G\	8b-/L	(2b-\	[	4.G\	.	.	.	(4f\	.	.	.	4a/	lau-	.	.	4.b-\	-cha-	.	.	2.ryy	.	.	.
.	.	(8bb-/	.	.	.	.	.	.	.	.	.	.	.	.	.	.	.	.	.	.	.	.	.	.
4.e-/)	.	8gg/	.	<	.	.	.	.	8e-\)	.	.	.	8g/	.	.	.	.	.	.	.	.	.	.	.
!	!	!	!	!	!	!	!	!LO:DY:a	!	!	!	!LO:DY:a	!	!	!	!LO:DY:a	!	!	!	!LO:DY:a	!	!	!	!
.	.	8ee-/	.	.	8G\	.	.	<	8e-\	.	.	<	8g/	-schen	.	<	8b-\	-ne	.	<	.	.	.	.
.	8A\L)	8cc/)	8g-X\L)	.	8A\	.	.	.	8e-\	.	.	.	8g-X/	dort	.	.	8cc\	sto-	.	.	.	.	.	.
8e-/	8A\J	8cc/J	8g-\J	.	8A\	.	.	[[	8e-\	.	.	[[	8g-/	die	.	[[	8cc\	-ją	.	[[	.	.	.	.
!LO:PB:g=original	!LO:PB:g=original	!LO:PB:g=original	!LO:PB:g=original	!	!LO:PB:g=original	!	!	!	!LO:PB:g=original	!	!	!	!LO:PB:g=original	!	!	!	!LO:PB:g=original	!	!	!	!	!	!	!
*	*	*v	*v	*	*	*	*	*	*	*	*	*	*	*	*	*	*	*	*	*	*	*	*	*
=31	=31	=31	=31	=31	=31	=31	=31	=31	=31	=31	=31	=31	=31	=31	=31	=31	=31	=31	=31	=31	=31	=31	=31
*xywh-#6:461,1388,2431,613	*xywh-#6:461,1388,2431,613	*xywh-#6:461,1388,2431,613	*	*xywh-#6:466,1212,2426,175	*	*	*	*xywh-#6:466,999,2426,213	*	*	*	*xywh-#6:498,762,2394,237	*	*	*	*xywh-#6:498,522,2367,239	*	*	*	*	*	*	*
8c/	8B-\L	8g-X\L 8ee-	[	8B-\	.	.	.	8c\	.	.	.	8g-X/	Bau-	.	.	8ee-\	drze-	.	.	2.ryy	.	.	.
8ryy	(8BB-\J	8f\J 8dd	.	8B-\	.	.	.	8d\	.	.	.	8f/	-me,	.	.	8dd\	-wa,	.	.	.	.	.	.
!	!	!	!	!	!	!	!LO:DY:a	!	!	!	!LO:DY:a	!	!	!	!LO:DY:a	!	!	!	!LO:DY:a	!	!	!	!
2ryy	8B-\L)	4.a-X\ 4.ff	f	4.D\	.	.	f	4.B-\	.	.	f	4.a-X/	Ein-	.	f	4.ff\	Ko-	.	f	.	.	.	.
.	8B-\	.	.	.	.	.	.	.	.	.	.	.	.	.	.	.	.	.	.	.	.	.	.
.	8B-\	.	.	.	.	.	.	.	.	.	.	.	.	.	.	.	.	.	.	.	.	.	.
.	8B-\J	8gn\ 8ee-	.	8E-\	.	.	.	8B-\	.	.	.	8gn/	-ge-	.	.	8ee-\	-ły-	.	.	.	.	.	.
=32	=32	=32	=32	=32	=32	=32	=32	=32	=32	=32	=32	=32	=32	=32	=32	=32	=32	=32	=32	=32	=32	=32	=32
8B-/L	4.r	8f/L 8dd	.	8F\	.	.	.	8B-\	.	.	.	8f/	-wiegt	.	.	8dd\	-san-	.	.	2.ryy	.	.	.
8B-/	.	8e-/J 8cc	.	8G\	.	.	.	8B-\	.	.	.	8e-/	in	.	.	8cc\	-kę	.	.	.	.	.	.
!	!	!	!	!	!	!	!LO:DY:a	!	!	!	!LO:DY:a	!	!	!	!LO:DY:a	!	!	!	!LO:DY:a	!	!	!	!
8B-/	.	4.a-X\ 4.ff	p	4.D\	.	.	p	4.B-\	.	.	p	4.a-X/	su-	.	p	4.ff\	pta-	.	p	.	.	.	.
8BB-/	[4.BB-\	.	.	.	.	.	.	.	.	.	.	.	.	.	.	.	.	.	.	.	.	.	.
8D/	.	.	.	.	.	.	.	.	.	.	.	.	.	.	.	.	.	.	.	.	.	.	.
8E-/J	.	8g\ 8ee-	.	8E-\	.	.	.	8B-\	.	.	.	8g/	-sse	.	.	8ee-\	-szę	.	.	.	.	.	.
=33	=33	=33	=33	=33	=33	=33	=33	=33	=33	=33	=33	=33	=33	=33	=33	=33	=33	=33	=33	=33	=33	=33	=33
!	!	!	!	!	!	!	!LO:DY:a	!	!	!	!LO:DY:a	!	!	!	!LO:DY:a	!	!	!	!LO:DY:a	!	!	!	!
(8F/L	2BB-\_	(8f/L 8dd	<	8F\	.	.	<	8B-\	.	.	<	8f/	Trau-	.	<	8dd\	śpie-	.	<	2.ryy	.	.	.
8G/	.	8e-/ 8cc	.	8G\	.	.	.	8B-\	.	.	.	8e-/	-me	.	.	8cc\	-wa,	.	.	.	.	.	.
8A-X/	.	8d/ 8b-	.	8A-X\	.	.	.	8B-\	.	.	.	8d/	Schon	.	.	8b-\	Ca-	.	.	.	.	.	.
8F#X/	.	8e-/ 8a	.	8F#X\	.	.	.	8c\	.	.	.	8e-/	ent-	.	.	8a/	-ły	.	.	.	.	.	.
8G/)	8BB-\]	8d/) 8b-	[	8G\	.	.	.	8B-\	.	.	.	8d/	-schlief	.	.	8b-\	za-	.	.	.	.	.	.
8EE-'/J 8E-	8ryy	8g'/J 8cc	.	8E-\	.	.	[[	8G/	.	.	[[	8g/	der	.	[[	8cc\	-snął	.	[[	.	.	.	.
*v	*v	*	*	*	*	*	*	*	*	*	*	*	*	*	*	*	*	*	*	*	*	*	*
=34	=34	=34	=34	=34	=34	=34	=34	=34	=34	=34	=34	=34	=34	=34	=34	=34	=34	=34	=34	=34	=34	=34
4DD/ 4D	8f#X/ 8dd	.	2D\	.	.	.	2A/	.	.	.	2f#X/	Hain!	.	.	2dd\	bór!	.	.	2.ryy	.	.	.
.	(8ff#X'\L 8aa	p	.	.	.	.	.	.	.	.	.	.	.	.	.	.	.	.	.	.	.	.
4r	8dd'\ 8ff#	.	.	.	.	.	.	.	.	.	.	.	.	.	.	.	.	.	.	.	.	.
.	8a'\ 8dd	.	.	.	.	.	.	.	.	.	.	.	.	.	.	.	.	.	.	.	.	.
((4DD/ 4D	8f#'\ 8a	<	4r	.	.	.	4r	.	.	.	4r	.	.	.	4r	.	.	.	.	.	.	.
.	8d'\J) 8f#	[[	.	.	.	.	.	.	.	.	.	.	.	.	.	.	.	.	.	.	.	.
=35	=35	=35	=35	=35	=35	=35	=35	=35	=35	=35	=35	=35	=35	=35	=35	=35	=35	=35	=35	=35	=35	=35
[4CC/)) [4C	[4B-/ [4e- [4g	sfz >	4r	.	.	.	4r	.	.	.	4r	.	.	.	4r	.	.	.	2.ryy	.	.	.
!	!	!	!	!	!	!LO:DY:a	!	!	!	!LO:DY:a	!	!	!	!LO:DY:a	!	!	!	!LO:DY:a	!	!	!	!
8CC/] 8C]	8B-/] 8e-] 8g]	]	4C/	.	.	<	4B-\	.	.	<	8g/L	Schon	.	<	4ee-\	Ca-	.	<	.	.	.	.
!	!	!	!	!LO:LB:g=original	!	!	!	!LO:LB:g=original	!	!	!	!	!	!	!	!	!	!	!	!	!	!
8r	8r	.	.	.	.	.	.	.	.	.	8fn/J	.	.	.	.	.	.	.	.	.	.	.
4r	4r	.	4C/	.	.	.	8c\L	.	.	.	8e-/L	ent	.	.	4g/	-ły	.	.	.	.	.	.
!LO:LB:g=original	!LO:LB:g=original	!	!LO:LB:g=original	!	!	!	!	!	!	!	!	!	!	!	!LO:LB:g=original	!	!	!	!	!	!	!
.	.	.	.	.	.	.	8B-\J	.	.	.	8d/J	.	.	.	.	.	.	.	.	.	.	.
!	!	!	!	!	!	!	!LO:LB:g=original	!	!	!	!LO:LB:g=original	!	!	!	!	!	!	!	!	!	!	!
=36	=36	=36	=36	=36	=36	=36	=36	=36	=36	=36	=36	=36	=36	=36	=36	=36	=36	=36	=36	=36	=36	=36
*xywh-#6:405,3002,2562,565	*xywh-#6:405,3002,2562,565	*	*xywh-#6:405,2804,2551,197	*	*	*	*xywh-#6:437,2594,2520,210	*	*	*	*xywh-#6:437,2375,2479,218	*	*	*	*xywh-#6:461,2002,2456,373	*	*	*	*	*	*	*
4r	4r	.	2F\	.	.	.	(4A/	.	.	.	2e-/	schlef	.	.	(4cc\	za-	.	.	2.ryy	.	.	.
4r	4r	.	.	.	.	.	4B-\)	.	.	[	.	.	.	.	4g/)	.	.	[	.	.	.	.
!	!	!	!	!	!	!LO:DY:a	!	!	!	!LO:DY:a	!	!	!	!	!	!	!	!LO:DY:a	!	!	!	!
4FF/ 4F	(4c/ 4e- 4a	p	4F\	.	.	[ > ]]	4c\	.	.	>]	4e-\	der	.	[ > ]]	4a/	-snął	.	>]	.	.	.	.
=37	=37	=37	=37	=37	=37	=37	=37	=37	=37	=37	=37	=37	=37	=37	=37	=37	=37	=37	=37	=37	=37	=37
[2.BBB-/ [2.BB-	8d/L) 8f 8b-	.	2BB-\ 2F	.	.	.	2B-\	.	.	.	2d/	Hain!	.	.	2b-\	bór!	.	.	2.ryy	.	.	.
!	!LO:TX:b:t=dolce	!	!	!	!	!	!	!	!	!	!	!	!	!	!	!	!	!	!	!	!	!
.	(8g/	.	.	.	.	.	.	.	.	.	.	.	.	.	.	.	.	.	.	.	.	.
.	8f/	.	.	.	.	.	.	.	.	.	.	.	.	.	.	.	.	.	.	.	.	.
.	8d/	.	.	.	.	.	.	.	.	.	.	.	.	.	.	.	.	.	.	.	.	.
.	8B-/	.	4r	.	.	.	4r	.	.	.	4r	.	.	.	4r	.	.	.	.	.	.	.
.	8G/J	.	.	.	.	.	.	.	.	.	.	.	.	.	.	.	.	.	.	.	.	.
=38	=38	=38	=38	=38	=38	=38	=38	=38	=38	=38	=38	=38	=38	=38	=38	=38	=38	=38	=38	=38	=38	=38
8BBB-/] 8BB-]	8F/L)	.	2.r	.	.	.	2.r	.	.	.	2.r	.	.	.	2.r	.	.	.	2.ryy	.	.	.
*	*clefF4	*	*	*	*	*	*	*	*	*	*	*	*	*	*	*	*	*	*	*	*	*
8r	(8D/	>	.	.	.	.	.	.	.	.	.	.	.	.	.	.	.	.	.	.	.	.
8r	8BB-/	.	.	.	.	.	.	.	.	.	.	.	.	.	.	.	.	.	.	.	.	.
(8GGG/L	8GG/	.	.	.	.	.	.	.	.	.	.	.	.	.	.	.	.	.	.	.	.	.
8BBB-/	8BB-/	.	.	.	.	.	.	.	.	.	.	.	.	.	.	.	.	.	.	.	.	.
8CC/J	8C/J	]]	.	.	.	.	.	.	.	.	.	.	.	.	.	.	.	.	.	.	.	.
=39||	=39||	=39||	=39||	=39||	=39||	=39||	=39||	=39||	=39||	=39||	=39||	=39||	=39||	=39||	=39||	=39||	=39||	=39||	=39||	=39||	=39||	=39||
*M4/4	*M4/4	*	*M4/4	*	*	*	*M4/4	*	*	*	*M4/4	*	*	*	*M4/4	*	*	*	*M4/4	*	*	*
*met(c)	*met(c)	*	*met(c)	*	*	*	*met(c)	*	*	*	*met(c)	*	*	*	*met(c)	*	*	*	*met(c)	*	*	*
!	!	!	!	!	!	!	!	!	!	!	!	!	!	!	!LO:TX:a:t=Andante poco sostenuto.	!	!	!	!	!	!	!
8DD/)	8D/L)	.	1r	.	.	.	1r	.	.	.	1r	.	.	.	1r	.	.	.	1ryy	.	.	.
*	*clefG2	*	*	*	*	*	*	*	*	*	*	*	*	*	*	*	*	*	*	*	*	*
8r	8d/	pp	.	.	.	.	.	.	.	.	.	.	.	.	.	.	.	.	.	.	.	.
4r	8d/	.	.	.	.	.	.	.	.	.	.	.	.	.	.	.	.	.	.	.	.	.
.	8d/J	.	.	.	.	.	.	.	.	.	.	.	.	.	.	.	.	.	.	.	.	.
2r	8d/L	.	.	.	.	.	.	.	.	.	.	.	.	.	.	.	.	.	.	.	.	.
.	8d/	<	.	.	.	.	.	.	.	.	.	.	.	.	.	.	.	.	.	.	.	.
.	8c#X/ 8d	.	.	.	.	.	.	.	.	.	.	.	.	.	.	.	.	.	.	.	.	.
.	8c#/J 8d	.	.	.	.	.	.	.	.	.	.	.	.	.	.	.	.	.	.	.	.	.
=40	=40	=40	=40	=40	=40	=40	=40	=40	=40	=40	=40	=40	=40	=40	=40	=40	=40	=40	=40	=40	=40	=40
1r	8cn/L 8d	.	1r	.	.	.	1r	.	.	.	1r	.	.	.	2r	.	.	.	1ryy	.	.	.
!LO:PB:g=original	!	!	!LO:PB:g=original	!	!	!	!LO:PB:g=original	!	!	!	!LO:PB:g=original	!	!	!	!	!	!	!	!LO:PB:g=original	!	!	!
.	8c/ 8d	.	.	.	.	.	.	.	.	.	.	.	.	.	.	.	.	.	.	.	.	.
.	8c/ 8d	[	.	.	.	.	.	.	.	.	.	.	.	.	.	.	.	.	.	.	.	.
.	8c/J 8d	.	.	.	.	.	.	.	.	.	.	.	.	.	.	.	.	.	.	.	.	.
.	8c/L 8d	.	.	.	.	.	.	.	.	.	.	.	.	.	4r	.	.	.	.	.	.	.
.	8c/ 8d	.	.	.	.	.	.	.	.	.	.	.	.	.	.	.	.	.	.	.	.	.
!	!	!	!	!	!	!	!	!	!	!	!	!	!	!	!LO:TX:a:t=SOLO.	!	!	!	!	!	!	!
!	!	!	!	!	!	!	!	!	!	!	!	!	!	!	!LO:TX:a:t=Solo.	!	!	!LO:DY:a	!	!	!	!
.	8B-/ 8d	>	.	.	.	.	.	.	.	.	.	.	.	.	8d/L	I	Von	p	.	.	.	.
.	8A/J 8c 8d	.	.	.	.	.	.	.	.	.	.	.	.	.	8d/J	o	der	.	.	.	.	.
!	!LO:PB:g=original	!	!	!	!	!	!	!	!	!	!	!	!	!	!LO:PB:g=original	!	!	!	!	!	!	!
=41	=41	=41	=41	=41	=41	=41	=41	=41	=41	=41	=41	=41	=41	=41	=41	=41	=41	=41	=41	=41	=41	=41
*xywh-#7:395,1386,2325,483	*xywh-#7:395,1386,2325,483	*	*xywh-#7:395,1174,2329,212	*	*	*	*xywh-#7:368,969,2355,205	*	*	*	*xywh-#7:368,790,2365,178	*	*	*	*xywh-#7:339,449,2395,341	*	*	*	*	*	*	*
8r	8G/L 8B- 8d	.	1r	.	.	.	1r	.	.	.	1r	.	.	.	4.g/	da-	fer-	.	1ryy	.	.	.
8GG/L 8D	8G/ 8d	] pp	.	.	.	.	.	.	.	.	.	.	.	.	.	.	.	.	.	.	.	.
8GG/ 8D	8G/ 8d	.	.	.	.	.	.	.	.	.	.	.	.	.	.	.	.	.	.	.	.	.
8GG/J 8D	8G/J 8d	.	.	.	.	.	.	.	.	.	.	.	.	.	8b-\	-wnych	-nen	.	.	.	.	.
8GG/L 8D	8G/L 8d	.	.	.	.	.	.	.	.	.	.	.	.	.	8a/L	wio-	Ju-	.	.	.	.	.
8GG/ 8D	8G/ 8d	.	.	.	.	.	.	.	.	.	.	.	.	.	8f#X/	.	.	.	.	.	.	.
8GG/ 8D	8G/ 8d	.	.	.	.	.	.	.	.	.	.	.	.	.	8g/J	.	.	.	.	.	.	.
8GG/J 8D	8G/J 8d	.	.	.	.	.	.	.	.	.	.	.	.	.	8a/	-snach	-gend	.	.	.	.	.
=42	=42	=42	=42	=42	=42	=42	=42	=42	=42	=42	=42	=42	=42	=42	=42	=42	=42	=42	=42	=42	=42	=42
8GG/L 8D	8G/L 8d	.	1r	.	.	.	1r	.	.	.	1r	.	.	.	4cc\	ma-	Ta-	.	1ryy	.	.	.
8GG/ 8D	8G/ 8d	.	.	.	.	.	.	.	.	.	.	.	.	.	.	.	.	.	.	.	.	.
8GG/ 8D	8G/ 8d	.	.	.	.	.	.	.	.	.	.	.	.	.	4b-\	-rzy,	-gen,	.	.	.	.	.
8GG/J 8D	8G/J 8d	.	.	.	.	.	.	.	.	.	.	.	.	.	.	.	.	.	.	.	.	.
8GG/L 8D	8G/L 8d	.	.	.	.	.	.	.	.	.	.	.	.	.	4r	.	.	.	.	.	.	.
8GG/ 8D	8G/ 8d	.	.	.	.	.	.	.	.	.	.	.	.	.	.	.	.	.	.	.	.	.
8GG/ 8D	8G/ 8d	.	.	.	.	.	.	.	.	.	.	.	.	.	8b-\	I	von	.	.	.	.	.
8GG/J 8D	8G/J 8d	.	.	.	.	.	.	.	.	.	.	.	.	.	8a/	o	der	.	.	.	.	.
=43	=43	=43	=43	=43	=43	=43	=43	=43	=43	=43	=43	=43	=43	=43	=43	=43	=43	=43	=43	=43	=43	=43
8GG/L 8D	8G/L 8d	.	1r	.	.	.	1r	.	.	.	1r	.	.	.	4.g/	da-	fer-	.	1ryy	.	.	.
8GG/ 8D	8G/ 8d	.	.	.	.	.	.	.	.	.	.	.	.	.	.	.	.	.	.	.	.	.
8GG/ 8D	8G/ 8d	.	.	.	.	.	.	.	.	.	.	.	.	.	.	.	.	.	.	.	.	.
8GG/J 8D	8G/J 8d	.	.	.	.	.	.	.	.	.	.	.	.	.	8a/	-wnych	-nen	.	.	.	.	.
!	!	!	!	!	!	!	!	!	!	!	!	!	!	!	!	!	!	!LO:DY:a	!	!	!	!
8GG/L 8D	8G/L 8d	.	.	.	.	.	.	.	.	.	.	.	.	.	8b-/L	wio-	Ju-	<	.	.	.	.
8GG/ 8D	8G/ 8d	.	.	.	.	.	.	.	.	.	.	.	.	.	8a/	.	.	.	.	.	.	.
8GG/ 8D	8G/ 8d	.	.	.	.	.	.	.	.	.	.	.	.	.	8b-/J	.	.	.	.	.	.	.
8GG/J 8D	8G/J 8d	.	.	.	.	.	.	.	.	.	.	.	.	.	8cc\	-snach	-gend	[[	.	.	.	.
=44	=44	=44	=44	=44	=44	=44	=44	=44	=44	=44	=44	=44	=44	=44	=44	=44	=44	=44	=44	=44	=44	=44
!	!	!	!	!	!	!	!	!	!	!	!	!	!	!	!	!	!	!LO:DY:a	!	!	!	!
8GG/ 8D	8G/L 8d	.	2r	.	.	.	2r	.	.	.	1r	.	.	.	4ee-\	ma-	Ta-	>	1ryy	.	.	.
!	!	!	!	!	!	!	!	!	!	!	!LO:LB:g=original	!	!	!	!	!	!	!	!	!	!	!
8r	8D/ 8d	.	.	.	.	.	.	.	.	.	.	.	.	.	.	.	.	.	.	.	.	.
4r	8D/ 8d	.	.	.	.	.	.	.	.	.	.	.	.	.	4dd\	-rzy,	-gen	]	.	.	.	.
.	8D/J 8d	.	.	.	.	.	.	.	.	.	.	.	.	.	.	.	.	.	.	.	.	.
2r	8D/L 8d	.	4r	.	.	.	4r	.	.	.	.	.	.	.	2r	.	.	.	.	.	.	.
!LO:LB:g=original	!	!	!	!	!	!	!	!	!	!	!	!	!	!	!LO:LB:g=original	!	!	!	!	!	!	!
.	8D/ 8d	.	.	.	.	.	.	.	.	.	.	.	.	.	.	.	.	.	.	.	.	.
!	!	!	!LO:TX:a:t=SOLO.	!	!	!LO:DY:a	!LO:TX:a:t=Solo.	!	!	!LO:DY:a	!	!	!	!	!	!	!	!	!	!	!	!
.	8D/ 8d	.	8G\	Traumt	.	pp	8B-\	Ni-	.	pp	.	.	.	.	.	.	.	.	.	.	.	.
.	8D/J 8d	.	8A\	er	.	.	8c\	-by	.	.	.	.	.	.	.	.	.	.	.	.	.	.
!	!LO:LB:g=original	!	!LO:LB:g=original	!	!	!	!LO:LB:g=original	!	!	!	!	!	!	!	!	!	!	!	!	!	!	!
=45	=45	=45	=45	=45	=45	=45	=45	=45	=45	=45	=45	=45	=45	=45	=45	=45	=45	=45	=45	=45	=45	=45
*xywh-#7:355,3026,2362,546	*xywh-#7:355,3026,2362,546	*	*xywh-#7:322,2761,2395,265	*	*	*	*xywh-#7:322,2559,2385,202	*	*	*	*xywh-#7:329,2261,2378,298	*	*	*	*xywh-#7:329,1966,2372,294	*	*	*	*	*	*	*
4r	8D/L 8d	.	2.B-\	bang	.	.	2.d\	ol-	.	.	1r	.	.	.	1r	.	.	.	1ryy	.	.	.
.	8D/ 8d	.	.	.	.	.	.	.	.	.	.	.	.	.	.	.	.	.	.	.	.	.
(4BB-\	8D/ 8d	<	.	.	.	.	.	.	.	.	.	.	.	.	.	.	.	.	.	.	.	.
.	8D/J 8d	.	.	.	.	.	.	.	.	.	.	.	.	.	.	.	.	.	.	.	.	.
4GG\	8D/L 8B- 8d	.	.	.	.	.	.	.	.	.	.	.	.	.	.	.	.	.	.	.	.	.
.	8D/ 8B- 8d	.	.	.	.	.	.	.	.	.	.	.	.	.	.	.	.	.	.	.	.	.
4DD\)	8F/ 8A 8d	.	4D\	und	.	.	4F/	-brzym	.	.	.	.	.	.	.	.	.	.	.	.	.	.
.	8F/J 8A 8c	[[	.	.	.	.	.	.	.	.	.	.	.	.	.	.	.	.	.	.	.	.
=46	=46	=46	=46	=46	=46	=46	=46	=46	=46	=46	=46	=46	=46	=46	=46	=46	=46	=46	=46	=46	=46	=46
[2GG\	8D/L 8G 8B-	>	[2G\	schwer.	.	.	[2B-\	w śnie.	.	.	1r	.	.	.	2r	.	.	.	1ryy	.	.	.
.	8D/ 8G 8B-	.	.	.	.	.	.	.	.	.	.	.	.	.	.	.	.	.	.	.	.	.
.	8D/ 8G 8B-	.	.	.	.	.	.	.	.	.	.	.	.	.	.	.	.	.	.	.	.	.
.	8D/J 8G 8B-	.	.	.	.	.	.	.	.	.	.	.	.	.	.	.	.	.	.	.	.	.
8GG\L]	8D/L 8G 8B-	]	8G\]	.	.	.	8B-\]	.	.	.	.	.	.	.	8r	.	.	.	.	.	.	.
!	!	!	!	!	!	!	!	!	!	!	!	!	!	!	!LO:TX:a:t=dolce	!	!	!	!	!	!	!
8GG\	8G/ 8B- 8d	.	8r	.	.	.	8r	.	.	.	.	.	.	.	8b-\L	Nad	Von	.	.	.	.	.
8GG\	8G/ 8B- 8d	.	4r	.	.	.	4r	.	.	.	.	.	.	.	8cc\J	.	.	.	.	.	.	.
8GG\J	8G/J 8B- 8d	.	.	.	.	.	.	.	.	.	.	.	.	.	8dd\	nim	des	.	.	.	.	.
=47	=47	=47	=47	=47	=47	=47	=47	=47	=47	=47	=47	=47	=47	=47	=47	=47	=47	=47	=47	=47	=47	=47
8DD/L 8D	8F/L 8B- 8f	pp	1r	.	.	.	1r	.	.	.	2r	.	.	.	4ff\	księ-	Wal-	.	1ryy	.	.	.
8DD/ 8D	8F/ 8B- 8f	.	.	.	.	.	.	.	.	.	.	.	.	.	.	.	.	.	.	.	.	.
8DD/ 8D	8F/ 8B- 8f	.	.	.	.	.	.	.	.	.	.	.	.	.	4b-\	-życ	-des	.	.	.	.	.
8DD/J 8D	8F/J 8B- 8f	.	.	.	.	.	.	.	.	.	.	.	.	.	.	.	.	.	.	.	.	.
!	!	!	!	!	!	!	!	!	!	!	!LO:TX:a:t=Solo.	!	!	!LO:DY:a	!	!	!	!	!	!	!	!
8GG/L 8D	8F/L 8B- 8f	.	.	.	.	.	.	.	.	.	4b-\	Nad	Von	p	8r	.	.	.	.	.	.	.
8GG/ 8D	8F/ 8B- 8f	.	.	.	.	.	.	.	.	.	.	.	.	.	8b-\L	zwisł	Zau-	.	.	.	.	.
!	!	!	!	!	!	!	!	!	!	!	!LO:TX:a:t=SOLO.	!	!	!	!	!	!	!	!	!	!	!
8GG/ 8D	8F/ 8B- 8f	.	.	.	.	.	.	.	.	.	4a/	nim	des	.	8cc\J	.	.	.	.	.	.	.
8GG/J 8D	8F/J 8B- 8f	.	.	.	.	.	.	.	.	.	.	.	.	.	8dd\	na	-ber	.	.	.	.	.
=48	=48	=48	=48	=48	=48	=48	=48	=48	=48	=48	=48	=48	=48	=48	=48	=48	=48	=48	=48	=48	=48	=48
*	*^	*	*	*	*	*	*	*	*	*	*	*	*	*	*	*	*	*	*	*	*	*
*	*	*xywh-#7:355,3026,2362,546	*	*	*	*	*	*	*	*	*	*	*	*	*	*	*	*	*	*	*	*	*
!	!	!	!	!	!	!	!	!	!	!	!	!	!	!	!	!	!	!	!LO:DY:a	!	!	!	!
2CC/ 2C	2e-^/	8G\L 8B-	.	1r	.	.	.	1r	.	.	.	(2g/	księ-	Wal-	.	4ee-\	stra-	sa-	<	1ryy	.	.	.
!	!	!	!	!LO:PB:g=original	!	!	!	!LO:PB:g=original	!	!	!	!	!	!	!	!	!	!	!	!	!	!	!
.	.	8G\ 8B-	.	.	.	.	.	.	.	.	.	.	.	.	.	.	.	.	.	.	.	.	.
.	.	8G\ 8c	<	.	.	.	.	.	.	.	.	.	.	.	.	4a/	-ży,	-gen,	.	.	.	.	.
.	.	8G\J 8B-	.	.	.	.	.	.	.	.	.	.	.	.	.	.	.	.	.	.	.	.	.
2FF/ 2C	2a^/	8A\L 8e-	.	.	.	.	.	.	.	.	.	4a/)	.	.	.	8r	.	.	.	.	.	.	.
!LO:PB:g=original	!LO:PB:g=original	!	!	!	!	!	!	!	!	!	!	!	!	!	!	!	!	!	!	!	!	!	!
.	.	8A\ 8e-	.	.	.	.	.	.	.	.	.	.	.	.	.	8a/L	Nad	von	.	.	.	.	.
.	.	8A\ 8e-	.	.	.	.	.	.	.	.	.	4g/	-życ	-des	.	8b-/J	.	.	.	.	.	.	.
.	.	8A\J 8e-	[	.	.	.	.	.	.	.	.	.	.	.	.	8cc\	nim	des	[[	.	.	.	.
!	!	!LO:PB:g=original	!	!	!	!	!	!	!	!	!	!LO:PB:g=original	!	!	!	!LO:PB:g=original	!	!	!	!	!	!	!
=49	=49	=49	=49	=49	=49	=49	=49	=49	=49	=49	=49	=49	=49	=49	=49	=49	=49	=49	=49	=49	=49	=49	=49
*xywh-#8:479,1484,2461,560	*xywh-#8:479,1484,2461,560	*xywh-#8:479,1484,2461,560	*	*xywh-#8:479,1234,2386,250	*	*	*	*xywh-#8:506,991,2359,242	*	*	*	*xywh-#8:517,746,2346,298	*	*	*	*xywh-#8:498,444,2365,301	*	*	*	*	*	*	*
2BBB-/ 2BB-	2dd/	8d\L 8a	.	1r	.	.	.	1r	.	.	.	(2f/	zwisł	Zau-	.	4dd\	księ-	Wal-	.	1ryy	.	.	.
.	.	8d\ 8a	.	.	.	.	.	.	.	.	.	.	.	.	.	.	.	.	.	.	.	.	.
.	.	8d\ 8b-	.	.	.	.	.	.	.	.	.	.	.	.	.	4g/	-życ	-des	.	.	.	.	.
.	.	8d\J 8a	.	.	.	.	.	.	.	.	.	.	.	.	.	.	.	.	.	.	.	.	.
2EE-/ 2BB-	2dd/	8d\L 8g	.	.	.	.	.	.	.	.	.	4g/)	.	.	.	8r	.	.	.	.	.	.	.
.	.	8d\ 8g	.	.	.	.	.	.	.	.	.	.	.	.	.	8g/L	zwisł	Zau-	.	.	.	.	.
.	.	8d\ 8g	.	.	.	.	.	.	.	.	.	4f/	na	-ber	.	8a/J	.	.	.	.	.	.	.
.	.	8d\J 8g	.	.	.	.	.	.	.	.	.	.	.	.	.	8b-\	na	-ber-	.	.	.	.	.
=50	=50	=50	=50	=50	=50	=50	=50	=50	=50	=50	=50	=50	=50	=50	=50	=50	=50	=50	=50	=50	=50	=50	=50
2AAA/ 2AA	4cc/	8c\L 8g	.	1r	.	.	.	1r	.	.	.	(4e-/	stra-	sa-	.	4cc\	stra-	-sa-	.	1ryy	.	.	.
.	.	8c\ 8g	.	.	.	.	.	.	.	.	.	.	.	.	.	.	.	.	.	.	.	.	.
.	8f/L	8d\	.	.	.	.	.	.	.	.	.	8d/L	.	.	.	4f/	-ży,	-gen.	.	.	.	.	.
.	8f/J	8e-\J	.	.	.	.	.	.	.	.	.	8c/J)	.	.	.	.	.	.	.	.	.	.	.
(8BBB-/L 8BB-	8d/L 8f	2ryy	>	.	.	.	.	.	.	.	.	4B-/	-ży	-gen.	.	2r	.	.	.	.	.	.	.
8AAA/ 8AA	8c/ 8d 8f	.	.	.	.	.	.	.	.	.	.	.	.	.	.	.	.	.	.	.	.	.	.
8GGG/ 8GG	8B-/ 8d 8f	.	.	.	.	.	.	.	.	.	.	4r	.	.	.	.	.	.	.	.	.	.	.
8BBB-/J 8BB-	8A/J 8d 8f	.	.	.	.	.	.	.	.	.	.	.	.	.	.	.	.	.	.	.	.	.	.
*	*v	*v	*	*	*	*	*	*	*	*	*	*	*	*	*	*	*	*	*	*	*	*	*
=51	=51	=51	=51	=51	=51	=51	=51	=51	=51	=51	=51	=51	=51	=51	=51	=51	=51	=51	=51	=51	=51	=51
*	*	*	*^	*	*	*	*^	*	*	*	*	*	*	*	*	*	*	*	*	*	*	*
*	*	*	*	*xywh-#8:479,1234,2386,250	*	*	*	*	*xywh-#8:506,991,2359,242	*	*	*	*	*	*	*	*	*	*	*	*	*	*	*
!	!	!	!LO:TX:a:t=CHÓR.	!	!	!	!LO:DY:a	!LO:TX:a:t=Chór.	!	!	!	!LO:DY:a	!	!	!	!	!	!	!	!	!	!	!	!
2.DD-X\) 2.D-X	16G/LL 16B- 16en	] pp	2G/	2D-X\	Stil-	.	pp	2en/	2B-\	Ci-	.	pp	2r	.	.	.	1r	.	.	.	1ryy	.	.	.
.	(16En/	.	.	.	.	.	.	.	.	.	.	.	.	.	.	.	.	.	.	.	.	.	.	.
.	16B-/	.	.	.	.	.	.	.	.	.	.	.	.	.	.	.	.	.	.	.	.	.	.	.
.	16e/JJ	.	.	.	.	.	.	.	.	.	.	.	.	.	.	.	.	.	.	.	.	.	.	.
.	16e/LL	.	.	.	.	.	.	.	.	.	.	.	.	.	.	.	.	.	.	.	.	.	.	.
.	16b-/	.	.	.	.	.	.	.	.	.	.	.	.	.	.	.	.	.	.	.	.	.	.	.
.	16een/	.	.	.	.	.	.	.	.	.	.	.	.	.	.	.	.	.	.	.	.	.	.	.
.	16ee/JJ	.	.	.	.	.	.	.	.	.	.	.	.	.	.	.	.	.	.	.	.	.	.	.
.	8bb-\)	.	8G/	8D-\	-le!	.	.	8e/	8B-\	-cho!	.	.	8r	.	.	.	.	.	.	.	.	.	.	.
!	!	!	!	!	!	!	!	!	!	!	!	!	!LO:TX:a:t=dolce	!	!	!	!	!	!	!	!	!	!	!
.	8r	.	8r	8ryy	.	.	.	8r	8ryy	.	.	.	8b-/L	Jak	Stumm	.	.	.	.	.	.	.	.	.
((4DD-\ 4D-	((4E/ [4B- 4e	.	4r	4ryy	.	.	.	4r	4ryy	.	.	.	8a/J	.	.	.	.	.	.	.	.	.	.	.
.	.	.	.	.	.	.	.	.	.	.	.	.	8g/	by	die	.	.	.	.	.	.	.	.	.
*	*	*	*v	*v	*	*	*	*	*	*	*	*	*	*	*	*	*	*	*	*	*	*	*	*
*	*	*	*	*	*	*	*v	*v	*	*	*	*	*	*	*	*	*	*	*	*	*	*	*
=52	=52	=52	=52	=52	=52	=52	=52	=52	=52	=52	=52	=52	=52	=52	=52	=52	=52	=52	=52	=52	=52	=52
8DD\L)) 8Dn	8F/)) 8B-] 8f	.	1r	.	.	.	1r	.	.	.	4.f/	śród	Wi-	.	4r	.	.	.	1ryy	.	.	.
(8D\	8r	.	.	.	.	.	.	.	.	.	.	.	.	.	.	.	.	.	.	.	.	.
!	!	!	!	!LO:LB:g=original	!	!	!	!LO:LB:g=original	!	!	!	!	!	!	!	!	!	!LO:DY:a	!	!	!	!
!	!	!	!	!	!	!	!	!	!	!	!	!	!	!	!	!	!	!LO:DY:a	!	!	!	!
8C\	2F/ 2f	<	.	.	.	.	.	.	.	.	.	.	.	.	[2.ff\	Ci-	Stil-	p < [[	.	.	.	.
!	!	!	!	!	!	!	!	!	!	!	!	!	!	!	!LO:LB:g=original	!	!	!	!	!	!	!
8BB-\J	.	.	.	.	.	.	.	.	.	.	8f/	cmen-	-pfel	.	.	.	.	.	.	.	.	.
8AA\L	.	.	.	.	.	.	.	.	.	.	(4f/	-ta-	ra-	.	.	.	.	.	.	.	.	.
8GG\	.	.	.	.	.	.	.	.	.	.	.	.	.	.	.	.	.	.	.	.	.	.
8FF\	[4F/ [4e- [4f	[ >	.	.	.	.	.	.	.	.	4ee-\)	.	.	.	.	.	.	.	.	.	.	.
!	!LO:LB:g=original	!	!	!	!	!	!	!	!	!	!LO:LB:g=original	!LO:LB:g=original	!	!	!	!	!	!	!	!	!	!
8C\J	.	.	.	.	.	.	.	.	.	.	.	.	.	.	.	.	.	.	.	.	.	.
!LO:LB:g=original	!	!	!	!	!	!	!	!	!	!	!	!	!	!	!	!	!	!	!	!	!	!
=53	=53	=53	=53	=53	=53	=53	=53	=53	=53	=53	=53	=53	=53	=53	=53	=53	=53	=53	=53	=53	=53	=53
*	*	*	*^	*	*	*	*^	*	*	*	*	*	*	*	*	*	*	*	*	*	*	*
*xywh-#8:477,3066,2415,554	*xywh-#8:477,3066,2415,554	*	*xywh-#8:525,2834,2367,232	*xywh-#8:525,2834,2367,232	*	*	*	*xywh-#8:525,2631,2314,202	*xywh-#8:525,2631,2314,202	*	*	*	*xywh-#8:519,2367,2319,264	*	*	*	*xywh-#8:519,2044,2421,322	*	*	*	*	*	*	*
!	!	!	!	!	!	!	!	!	!	!	!	!	!	!	!	!	!	!	!	!LO:DY:a	!	!	!	!
8BBn\)	16F/LL] 16e-] 16f]	.	2F/	2BBn\	Stil-	.	.	2d/	2A-X\	Ci-	.	.	4dd\	-rzy,	-gen,	.	4ff\]	.	.	>	1ryy	.	.	.
.	(16D/	] pp	.	.	.	.	.	.	.	.	.	.	.	.	.	.	.	.	.	.	.	.	.	.
8r	16A/	.	.	.	.	.	.	.	.	.	.	.	.	.	.	.	.	.	.	.	.	.	.	.
.	16d/JJ	.	.	.	.	.	.	.	.	.	.	.	.	.	.	.	.	.	.	.	.	.	.	.
2BBBn/ 2BB	16d/LL	.	.	.	.	.	.	.	.	.	.	.	4r	.	.	.	4f/	-cho!	-le!	]	.	.	.	.
.	16a-X/	.	.	.	.	.	.	.	.	.	.	.	.	.	.	.	.	.	.	.	.	.	.	.
.	16dd/	.	.	.	.	.	.	.	.	.	.	.	.	.	.	.	.	.	.	.	.	.	.	.
.	16dd/JJ	.	.	.	.	.	.	.	.	.	.	.	.	.	.	.	.	.	.	.	.	.	.	.
.	8aa-X\)	.	8F/	8BB\	-le!	.	.	8d/	8A-\	-cho!	.	.	8r	.	.	.	2r	.	.	.	.	.	.	.
.	8r	.	8r	8ryy	.	.	.	8r	8ryy	.	.	.	8a-X/L	jak-	stumm	.	.	.	.	.	.	.	.	.
((4BBB\ 4BB	((4D/ [4A 4d	.	4r	4ryy	.	.	.	4r	4ryy	.	.	.	8g/J	.	.	.	.	.	.	.	.	.	.	.
.	.	.	.	.	.	.	.	.	.	.	.	.	8f/	-by	die	.	.	.	.	.	.	.	.	.
*	*	*	*v	*v	*	*	*	*	*	*	*	*	*	*	*	*	*	*	*	*	*	*	*	*
*	*	*	*	*	*	*	*v	*v	*	*	*	*	*	*	*	*	*	*	*	*	*	*	*
=54	=54	=54	=54	=54	=54	=54	=54	=54	=54	=54	=54	=54	=54	=54	=54	=54	=54	=54	=54	=54	=54	=54
8CC\L)) 8C	8E-/)) 8A] 8e-	.	1r	.	.	.	1r	.	.	.	4.e-/	śród	Wi-	.	4r	.	.	.	1ryy	.	.	.
(8C\	8r	.	.	.	.	.	.	.	.	.	.	.	.	.	.	.	.	.	.	.	.	.
!	!	!	!	!	!	!	!	!	!	!	!	!	!	!	!	!	!	!LO:DY:a	!	!	!	!
8BB-\	2E-/ 2e-	<	.	.	.	.	.	.	.	.	.	.	.	.	[2.ee-\	Ci-	Stil-	<[	.	.	.	.
8AA-X\J	.	.	.	.	.	.	.	.	.	.	8e-/	cmen-	-pfel	.	.	.	.	.	.	.	.	.
8GG\L	.	.	.	.	.	.	.	.	.	.	(4e-/	-ta-	ra-	.	.	.	.	.	.	.	.	.
8FF\	.	.	.	.	.	.	.	.	.	.	.	.	.	.	.	.	.	.	.	.	.	.
8EE-\	((4E-/ 4d-X [4e-	[ > ]]	.	.	.	.	.	.	.	.	4dd-X\)	.	.	.	.	.	.	.	.	.	.	.
8BB-\J	.	.	.	.	.	.	.	.	.	.	.	.	.	.	.	.	.	.	.	.	.	.
=55	=55	=55	=55	=55	=55	=55	=55	=55	=55	=55	=55	=55	=55	=55	=55	=55	=55	=55	=55	=55	=55	=55
*	*	*	*^	*	*	*	*^	*	*	*	*	*	*	*	*	*	*	*	*	*	*	*
*	*	*	*	*xywh-#8:525,2834,2367,232	*	*	*	*	*xywh-#8:525,2631,2314,202	*	*	*	*	*	*	*	*	*	*	*	*	*	*	*
!	!	!	!	!	!	!	!LO:DY:a	!	!	!	!	!LO:DY:a	!	!	!	!	!	!	!	!LO:DY:a	!	!	!	!
8AA-X\)	16G-X/LL)) 16c 16e-]	.	2G-X/	2AA-X\	Stil-	.	pp	2e-/	2c\	Ci-	.	pp	4cc\	-rzy,	-gen.	.	4ee-\]	.	.	>	1ryy	.	.	.
.	(16C/	.	.	.	.	.	.	.	.	.	.	.	.	.	.	.	.	.	.	.	.	.	.	.
8r	16G-/	.	.	.	.	.	.	.	.	.	.	.	.	.	.	.	.	.	.	.	.	.	.	.
.	16c/JJ	.	.	.	.	.	.	.	.	.	.	.	.	.	.	.	.	.	.	.	.	.	.	.
2AAA-X/ 2AA-	16c/LL	.	.	.	.	.	.	.	.	.	.	.	4r	.	.	.	4e-/	-cho!	-le!	]	.	.	.	.
.	16g-X/	.	.	.	.	.	.	.	.	.	.	.	.	.	.	.	.	.	.	.	.	.	.	.
.	16cc/	.	.	.	.	.	.	.	.	.	.	.	.	.	.	.	.	.	.	.	.	.	.	.
.	16cc/JJ	.	.	.	.	.	.	.	.	.	.	.	.	.	.	.	.	.	.	.	.	.	.	.
.	16gg-X\LL	.	2G-/	2AA-\	-le!	.	.	2e-/	2c\	-cho!	.	.	2r	.	.	.	8r	.	.	.	.	.	.	.
.	16ccc\	.	.	.	.	.	.	.	.	.	.	.	.	.	.	.	.	.	.	.	.	.	.	.
!	!	!	!LO:PB:g=original	!LO:PB:g=original	!	!	!	!LO:PB:g=original	!LO:PB:g=original	!	!	!	!LO:PB:g=original	!LO:PB:g=original	!	!	!LO:TX:a:t=poco espr.	!	!	!	!	!	!	!
.	16gg-\	.	.	.	.	.	.	.	.	.	.	.	.	.	.	.	8ee-\L	Tyl-	Wi-	.	.	.	.	.
.	16cc\JJ	.	.	.	.	.	.	.	.	.	.	.	.	.	.	.	.	.	.	.	.	.	.	.
(4AAA-/ 4AA-	16g-/LL	.	.	.	.	.	.	.	.	.	.	.	.	.	.	.	8dd\J	.	.	.	.	.	.	.
.	16cc/	.	.	.	.	.	.	.	.	.	.	.	.	.	.	.	.	.	.	.	.	.	.	.
.	16g-/	.	.	.	.	.	.	.	.	.	.	.	.	.	.	.	8cc\	-ko	-pfel	.	.	.	.	.
!	!	!	!	!	!	!	!	!	!	!	!	!	!	!	!	!	!LO:PB:g=original	!	!	!	!	!	!	!
.	16c/JJ)	.	.	.	.	.	.	.	.	.	.	.	.	.	.	.	.	.	.	.	.	.	.	.
!LO:PB:g=original	!LO:PB:g=original	!LO:PB:g=original	!	!	!	!	!	!	!	!	!	!	!	!	!	!	!	!	!	!	!	!	!	!
=56	=56	=56	=56	=56	=56	=56	=56	=56	=56	=56	=56	=56	=56	=56	=56	=56	=56	=56	=56	=56	=56	=56	=56	=56
*xywh-#9:372,1459,2378,606	*xywh-#9:372,1459,2378,606	*	*xywh-#9:372,1204,2334,254	*xywh-#9:372,1204,2334,254	*	*	*	*xywh-#9:367,926,2339,278	*xywh-#9:367,926,2339,278	*	*	*	*xywh-#9:367,750,2344,175	*	*	*	*xywh-#9:357,437,2355,312	*	*	*	*	*	*	*
!	!	!	!	!	!	!	!LO:DY:a	!	!	!	!	!LO:DY:a	!	!	!	!	!	!	!	!	!	!	!	!
2GGGn/) 2GGn	16r	.	(2Gn/	(2GG\	Stil-	.	<	[1e-	[1c	Ci-	.	<	1r	.	.	.	4cc\	piosn-	ra-	.	1ryy	.	.	.
.	(16Gn/LL	<	.	.	.	.	.	.	.	.	.	.	.	.	.	.	.	.	.	.	.	.	.	.
.	16c/	.	.	.	.	.	.	.	.	.	.	.	.	.	.	.	.	.	.	.	.	.	.	.
.	16e-/JJ	.	.	.	.	.	.	.	.	.	.	.	.	.	.	.	.	.	.	.	.	.	.	.
.	16gn\LL	.	.	.	.	.	.	.	.	.	.	.	.	.	.	.	4g/	-ka	-gen	.	.	.	.	.
.	16cc\	.	.	.	.	.	.	.	.	.	.	.	.	.	.	.	.	.	.	.	.	.	.	.
.	16ee-\	.	.	.	.	.	.	.	.	.	.	.	.	.	.	.	.	.	.	.	.	.	.	.
.	16ggn\JJ	.	.	.	.	.	.	.	.	.	.	.	.	.	.	.	.	.	.	.	.	.	.	.
(2FFF/ 2FF	16aa-X\LL	.	2A-X/	2FF\	.	.	.	.	.	.	.	.	.	.	.	.	8r	.	.	.	.	.	.	.
.	16ccc\	.	.	.	.	.	.	.	.	.	.	.	.	.	.	.	.	.	.	.	.	.	.	.
!	!	!	!	!	!	!	!	!	!	!	!	!	!	!	!	!	!	!	!	!LO:DY:a	!	!	!	!
.	16aa-\	.	.	.	.	.	.	.	.	.	.	.	.	.	.	.	8cc\L	tyl-	Wie	<	.	.	.	.
.	16ee-\JJ	.	.	.	.	.	.	.	.	.	.	.	.	.	.	.	.	.	.	.	.	.	.	.
.	16cc/LL	.	.	.	.	.	.	.	.	.	.	.	.	.	.	.	8b-\J	.	.	.	.	.	.	.
.	16a-X/	.	.	.	.	.	.	.	.	.	.	.	.	.	.	.	.	.	.	.	.	.	.	.
.	16e-/	[	.	.	.	.	.	.	.	.	.	.	.	.	.	.	8a-X/	-ko	ein	[[	.	.	.	.
.	16c/JJ)	.	.	.	.	.	.	.	.	.	.	.	.	.	.	.	.	.	.	.	.	.	.	.
=57	=57	=57	=57	=57	=57	=57	=57	=57	=57	=57	=57	=57	=57	=57	=57	=57	=57	=57	=57	=57	=57	=57	=57	=57
!	!	!	!	!	!	!	!LO:DY:a	!	!	!	!	!LO:DY:a	!	!	!	!	!	!	!	!	!	!	!	!
2.GGG/) 2.GG	16r	.	4G/)	4GG\)	.	.	[ >	4e-/]	4c\]	.	.	[ >	1r	.	.	.	(2g/	piosn-	Rie-	.	1ryy	.	.	.
.	(16G/LL	>	.	.	.	.	.	.	.	.	.	.	.	.	.	.	.	.	.	.	.	.	.	.
.	16c/	.	.	.	.	.	.	.	.	.	.	.	.	.	.	.	.	.	.	.	.	.	.	.
.	16e-/JJ	.	.	.	.	.	.	.	.	.	.	.	.	.	.	.	.	.	.	.	.	.	.	.
.	16g/LL	.	4G/	4GG\	-le!	.	]	4e-/	4c\	-cho!	.	]	.	.	.	.	.	.	.	.	.	.	.	.
.	16e-/	.	.	.	.	.	.	.	.	.	.	.	.	.	.	.	.	.	.	.	.	.	.	.
.	16c/	.	.	.	.	.	.	.	.	.	.	.	.	.	.	.	.	.	.	.	.	.	.	.
.	16G/JJ	.	.	.	.	.	.	.	.	.	.	.	.	.	.	.	.	.	.	.	.	.	.	.
.	16F#X/LL	]	2r	2ryy	.	.	.	4r	2ryy	.	.	.	.	.	.	.	4an/)	.	.	.	.	.	.	.
.	16d/	.	.	.	.	.	.	.	.	.	.	.	.	.	.	.	.	.	.	.	.	.	.	.
.	16An/	.	.	.	.	.	.	.	.	.	.	.	.	.	.	.	.	.	.	.	.	.	.	.
.	16F#/JJ	.	.	.	.	.	.	.	.	.	.	.	.	.	.	.	.	.	.	.	.	.	.	.
!	!	!	!	!	!	!	!	!LO:TX:a:t=SOLO.	!	!	!	!	!	!	!	!	!	!	!	!	!	!	!	!
!	!	!	!	!	!	!	!	!LO:TX:a:t=Solo.	!	!	!	!	!	!	!	!	!	!	!	!LO:DY:a	!	!	!	!
(4GGG\ [4GG	16Fn/LL	.	.	.	.	.	.	8G/	.	Tyl-	Nur	.	.	.	.	.	4bn\	-ka	-sen	>]	.	.	.	.
.	16Bn/	.	.	.	.	.	.	.	.	.	.	.	.	.	.	.	.	.	.	.	.	.	.	.
.	16G/	.	.	.	.	.	.	8G/	.	-ko	die	.	.	.	.	.	.	.	.	.	.	.	.	.
.	16F/JJ	.	.	.	.	.	.	.	.	.	.	.	.	.	.	.	.	.	.	.	.	.	.	.
*	*	*	*v	*v	*	*	*	*	*	*	*	*	*	*	*	*	*	*	*	*	*	*	*	*
*	*	*	*	*	*	*	*v	*v	*	*	*	*	*	*	*	*	*	*	*	*	*	*	*
=58	=58	=58	=58	=58	=58	=58	=58	=58	=58	=58	=58	=58	=58	=58	=58	=58	=58	=58	=58	=58	=58	=58
!	!	!	!	!	!	!	!LO:TX:a:t=espr.	!	!	!	!	!	!	!	!	!	!	!	!	!	!	!
8CC\L) 8GG]	8E-/L)	.	1r	.	.	.	(4.c\	w do-	Blu-	.	1r	.	.	.	4cc\	mknie.	heer!	.	1ryy	.	.	.
!	!	!	!LO:LB:g=original	!	!	!	!	!	!	!	!	!	!	!	!	!	!	!	!	!	!	!
8CC\ 8C	8G/ 8c 8g	.	.	.	.	.	.	.	.	.	.	.	.	.	.	.	.	.	.	.	.	.
8CC\ 8C	8G/ 8c 8g	.	.	.	.	.	.	.	.	.	.	.	.	.	4r	.	.	.	.	.	.	.
8CC\J 8C	8G/J 8c 8g	.	.	.	.	.	8e-\)	.	.	.	.	.	.	.	.	.	.	.	.	.	.	.
8CC/L 8C	8G/L 8c 8g	.	.	.	.	.	8d\	-le	-men,	.	.	.	.	.	2r	.	.	.	.	.	.	.
!	!	!	!	!	!	!	!	!	!	!LO:DY:a	!	!	!	!	!LO:LB:g=original	!	!	!	!	!	!	!
8CC/ 8C	8G/ 8c 8g	.	.	.	.	.	8Bn\L	wśród	sie	<	.	.	.	.	.	.	.	.	.	.	.	.
8CC/ 8C	8G/ 8c 8g	.	.	.	.	.	8c\J	.	.	.	.	.	.	.	.	.	.	.	.	.	.	.
8CC/J 8C	8G/J 8c 8g	.	.	.	.	.	8d\	gęst	er	[[	.	.	.	.	.	.	.	.	.	.	.	.
!LO:LB:g=original	!LO:LB:g=original	!	!	!	!	!	!LO:LB:g=original	!	!	!	!	!	!	!	!	!	!	!	!	!	!	!
=59	=59	=59	=59	=59	=59	=59	=59	=59	=59	=59	=59	=59	=59	=59	=59	=59	=59	=59	=59	=59	=59	=59
*xywh-#9:362,3068,2384,535	*xywh-#9:362,3068,2384,535	*	*xywh-#9:375,2793,2371,275	*	*	*	*xywh-#9:396,2535,2352,267	*	*	*	*xywh-#9:341,2317,2407,217	*	*	*	*xywh-#9:341,2065,2410,252	*	*	*	*	*	*	*
8CC/L 8C	8G/L 8c 8g	.	1r	.	.	.	4f\	wi-	be-	.	1r	.	.	.	1r	.	.	.	1ryy	.	.	.
8CC/ 8C	8G/ 8c 8g	.	.	.	.	.	.	.	.	.	.	.	.	.	.	.	.	.	.	.	.	.
8CC/ 8C	8G/ 8c 8g	<	.	.	.	.	4e-\	-ny,	-ben	.	.	.	.	.	.	.	.	.	.	.	.	.
8CC/J 8C	8G/J 8c 8g	.	.	.	.	.	.	.	.	.	.	.	.	.	.	.	.	.	.	.	.	.
8CC/L 8C	8G/L 8c 8g	.	.	.	.	.	8r	.	.	.	.	.	.	.	.	.	.	.	.	.	.	.
!	!	!	!	!	!	!	!	!	!	!LO:DY:a	!	!	!	!	!	!	!	!	!	!	!	!
8CC/ 8C	8G/ 8c 8g	.	.	.	.	.	8d\L	Le-	Ach,	<	.	.	.	.	.	.	.	.	.	.	.	.
8BBB-/ 8BB-	8G/ 8c 8g	.	.	.	.	.	8e-\J	.	.	.	.	.	.	.	.	.	.	.	.	.	.	.
8BBB-/J 8BB-	8G/J 8c 8g	[[	.	.	.	.	8f\	-śne	von	[[	.	.	.	.	.	.	.	.	.	.	.	.
=60	=60	=60	=60	=60	=60	=60	=60	=60	=60	=60	=60	=60	=60	=60	=60	=60	=60	=60	=60	=60	=60	=60
8AAA-X/L 8AA-X	8c/L 8g-X 8cc	.	1r	.	.	.	4.g-X\	kwia-	mei-	.	1r	.	.	.	1r	.	.	.	1ryy	.	.	.
8AAA-/ 8AA-	8c/ 8g- 8cc	.	.	.	.	.	.	.	.	.	.	.	.	.	.	.	.	.	.	.	.	.
8AAA-/ 8AA-	8c/ 8g- 8cc	.	.	.	.	.	.	.	.	.	.	.	.	.	.	.	.	.	.	.	.	.
8AAA-/J 8AA-	8c/J 8g- 8cc	.	.	.	.	.	8e-\	-ty	-nem,	.	.	.	.	.	.	.	.	.	.	.	.	.
8AAA-/L 8AA-	8c/L 8g- 8cc	.	.	.	.	.	8c\	le-	ach	.	.	.	.	.	.	.	.	.	.	.	.	.
8AAA-/ 8AA-	8c/ 8g- 8cc	.	.	.	.	.	8Gn/	-śne	von	.	.	.	.	.	.	.	.	.	.	.	.	.
8AAA-/ 8AA-	8c/ 8g- 8cc	.	.	.	.	.	8A-X/	kwia-	mei-	.	.	.	.	.	.	.	.	.	.	.	.	.
8AAA-/J 8AA-	8c/J 8g- 8cc	.	.	.	.	.	8B-\	-ty	-nem	.	.	.	.	.	.	.	.	.	.	.	.	.
=61	=61	=61	=61	=61	=61	=61	=61	=61	=61	=61	=61	=61	=61	=61	=61	=61	=61	=61	=61	=61	=61	=61
[1DD-X [1D-X	16c-X/LL 16f 16cc-X	.	4r	.	.	.	4c-X\	drżą,	Sang.	.	4r	.	.	.	4r	.	.	.	1ryy	.	.	.
.	(16F/	.	.	.	.	.	.	.	.	.	.	.	.	.	.	.	.	.	.	.	.	.
.	16c-/	.	.	.	.	.	.	.	.	.	.	.	.	.	.	.	.	.	.	.	.	.
.	16f/JJ	.	.	.	.	.	.	.	.	.	.	.	.	.	.	.	.	.	.	.	.	.
!	!	!	!LO:TX:a:t=SOLO.	!	!	!LO:DY:a	!	!	!	!	!LO:TX:a:t=Solo.	!	!	!LO:DY:a	!	!	!	!LO:DY:a	!	!	!	!
.	16f\LL	.	[4c-X\	le-	Ach,	p	4r	.	.	.	[4f/	Ach,	.	p	[4a-X/	le-	.	p	.	.	.	.
.	16cc-\	.	.	.	.	.	.	.	.	.	.	.	.	.	.	.	.	.	.	.	.	.
.	16ff\	.	.	.	.	.	.	.	.	.	.	.	.	.	.	.	.	.	.	.	.	.
.	16ff\JJ	.	.	.	.	.	.	.	.	.	.	.	.	.	.	.	.	.	.	.	.	.
!	!LO:TX:t=P:problem=mixed beam	!	!	!	!	!LO:DY:a	!	!	!	!	!	!	!	!	!	!	!	!LO:DY:a	!	!	!	!
.	8ccc-X\L)	.	8c-\]	.	.	<	2r	.	.	.	8f/]	.	.	.	8a-/]	.	.	<	.	.	.	.
.	(8F/	.	8c-\	-śne	von	.	.	.	.	.	8f/	von	.	.	8a-/	-śne	.	.	.	.	.	.
.	8A-X/	.	8A-X\	kwia-	mei-	.	.	.	.	.	8a-X/	mei-	.	.	8cc-X\	kwia-	.	.	.	.	.	.
.	8B-/J	.	8B-\	-ty	-nem	[[	.	.	.	.	8g-X/	-nem	.	.	8b-\	-ty	.	[[	.	.	.	.
=62	=62	=62	=62	=62	=62	=62	=62	=62	=62	=62	=62	=62	=62	=62	=62	=62	=62	=62	=62	=62	=62	=62
8DD-/L] 8D-]	8c-X/L)	.	4c-X\	drżą.	Sang.	.	8r	.	.	.	4f/	Sang.	.	.	4a-X/	drżą,	.	.	1ryy	.	.	.
8DD-X/ 8D-X	8c-/ 8f 8cc-X	.	.	.	.	.	4a-X\	A	Su-	.	.	.	.	.	.	.	.	.	.	.	.	.
8DD-/ 8D-	8c-/ 8f 8cc-	.	4r	.	.	.	.	.	.	.	4r	.	.	.	4r	.	.	.	.	.	.	.
!	!	!	!	!	!	!	!LO:TX:a:t=espr.	!	!	!	!	!	!	!	!	!	!	!	!	!	!	!
8DD-/J 8D-	8c-/J 8f 8b-	.	.	.	.	.	8g-X\	kon-	-sse	.	.	.	.	.	.	.	.	.	.	.	.	.
8DD-/L 8D-	8c-/L 8f 8a-X	.	2r	.	.	.	8f\	-wa-	Luf-	.	2r	.	.	.	2r	.	.	.	.	.	.	.
!	!	!	!	!LO:PB:g=original	!	!	!	!	!	!	!	!LO:PB:g=original	!	!	!	!LO:PB:g=original	!	!	!	!	!	!
8DD-/ 8D-	8c-/ 8g-X	.	.	.	.	.	8e-\	-lie	-te	.	.	.	.	.	.	.	.	.	.	.	.	.
8DD-/ 8D-	8c-/ 8f	.	.	.	.	.	8d-X\	i	sie	.	.	.	.	.	.	.	.	.	.	.	.	.
8DD-/J 8D-	8c-/J 8f 8a-	.	.	.	.	.	8c-X\	ka	um	.	.	.	.	.	.	.	.	.	.	.	.	.
!LO:PB:g=original	!LO:PB:g=original	!	!	!	!	!	!LO:PB:g=original	!LO:PB:g=original	!	!	!	!	!	!	!	!	!	!	!	!	!	!
=63	=63	=63	=63	=63	=63	=63	=63	=63	=63	=63	=63	=63	=63	=63	=63	=63	=63	=63	=63	=63	=63	=63
*xywh-#10:466,1426,2413,552	*xywh-#10:466,1426,2413,552	*	*xywh-#10:466,1138,2410,288	*	*	*	*xywh-#10:458,922,2413,242	*	*	*	*xywh-#10:458,695,2392,226	*	*	*	*xywh-#10:477,434,2373,261	*	*	*	*	*	*	*
[1EE- [1E-	16B-/LL 16d-X 16gn	.	4r	.	.	.	8B-\L	li-	schwe-	.	4r	.	.	.	4r	.	.	.	1ryy	.	.	.
.	(16Gn/	.	.	.	.	.	.	.	.	.	.	.	.	.	.	.	.	.	.	.	.	.
.	16dn/	.	.	.	.	.	8f-X\J	.	.	.	.	.	.	.	.	.	.	.	.	.	.	.
.	16g/JJ	.	.	.	.	.	.	.	.	.	.	.	.	.	.	.	.	.	.	.	.	.
!	!	!	!	!	!	!LO:DY:a	!	!	!	!	!	!	!	!	!	!	!	!	!	!	!	!
!	!	!	!	!	!	!LO:DY:a	!	!	!	!LO:DY:a	!	!	!	!LO:DY:a	!	!	!	!LO:DY:a	!	!	!	!
.	16g\LL	.	[4d-X\	Chy-	Von-	p <	4e-\	-ny	-ben,	<	[4g/	Von	.	<	[4b-\	Chy-	.	<	.	.	.	.
.	16dd-X\	.	.	.	.	.	.	.	.	.	.	.	.	.	.	.	.	.	.	.	.	.
.	16gg\	.	.	.	.	.	.	.	.	.	.	.	.	.	.	.	.	.	.	.	.	.
.	16gg\JJ	.	.	.	.	.	.	.	.	.	.	.	.	.	.	.	.	.	.	.	.	.
.	8ddd-X/L)	.	8d-\]	.	.	.	2r	.	.	[	8g/]	.	.	.	8b-\]	.	.	.	.	.	.	.
.	(8G/	.	8d-\	-lą	-des	.	.	.	.	.	8g/	des	.	.	8b-\	-lą	.	.	.	.	.	.
.	8B-/	.	8B-\	głów-	Lied-	.	.	.	.	.	8b-\	Lied-	.	.	8dd-X\	głów-	.	.	.	.	.	.
.	8c-X/J	.	8c-X\	-kę	-chens	[[	.	.	.	.	8a-X/	-chens	.	[[	8cc-X\	-kę	.	[[	.	.	.	.
=64	=64	=64	=64	=64	=64	=64	=64	=64	=64	=64	=64	=64	=64	=64	=64	=64	=64	=64	=64	=64	=64	=64
8EE-/L] 8E-]	8d-X/L)	.	4d-X\	swą,	Klang,	.	2r	.	.	.	4g/	Klang,	.	.	4b-\	swą,	.	.	1ryy	.	.	.
8EE-/ 8E-	8d-/ 8g 8dd-X	.	.	.	.	.	.	.	.	.	.	.	.	.	.	.	.	.	.	.	.	.
8EE-/ 8E-	8d-/ 8g 8dd-	.	4r	.	.	.	.	.	.	.	4r	.	.	.	4r	.	.	.	.	.	.	.
8EE-/J 8E-	8d-/J 8g 8ccn	.	.	.	.	.	.	.	.	.	.	.	.	.	.	.	.	.	.	.	.	.
8EE-/L 8E-	8d-/L 8g 8b-	.	2r	.	.	.	8r	.	.	.	2r	.	.	.	2r	.	.	.	.	.	.	.
!	!	!	!	!	!	!	!	!	!	!LO:DY:a	!	!	!	!	!	!	!	!	!	!	!	!
8EE-/ 8E-	8B-/ 8d- 8g	.	.	.	.	.	8d-X\L	A	su-	>	.	.	.	.	.	.	.	.	.	.	.	.
8EEn/ 8En	8B-/ 8d- 8g-X	.	.	.	.	.	8cn\J	.	.	.	.	.	.	.	.	.	.	.	.	.	.	.
8EE/J 8E	8B-/J 8d- 8g-	.	.	.	.	.	8B-\	kon-	-se	.	.	.	.	.	.	.	.	.	.	.	.	.
=65	=65	=65	=65	=65	=65	=65	=65	=65	=65	=65	=65	=65	=65	=65	=65	=65	=65	=65	=65	=65	=65	=65
8FF/L 8F	8B-/L 8d-X 8f	.	2r	.	.	.	4f\	-wa-	Luf-	.	2r	.	.	.	2r	.	.	.	1ryy	.	.	.
8FF/ 8F	8B-/ 8d- 8f	.	.	.	.	.	.	.	.	.	.	.	.	.	.	.	.	.	.	.	.	.
8FF/ 8F	8B-/ 8d- 8f	.	.	.	.	.	4B-\	-lie	-te,	]	.	.	.	.	.	.	.	.	.	.	.	.
8FF/J 8F	8B-/J 8d- 8f	.	.	.	.	.	.	.	.	.	.	.	.	.	.	.	.	.	.	.	.	.
!	!	!	!	!	!	!LO:DY:a	!	!	!	!	!	!	!	!LO:DY:a	!	!	!	!	!	!	!	!
8GG-X/L 8G-X	8B-/L 8d- 8b-	.	4G-X\	A	su-	p	2r	.	.	.	4b-\	A	su-	p	8r	.	.	.	.	.	.	.
!	!	!	!	!	!	!	!	!	!LO:LB:g=original	!	!	!	!	!	!LO:TX:a:t=dolce	!	!	!	!	!	!	!
8GG-/ 8G-	8B-/ 8d- 8b-	.	.	.	.	.	.	.	.	.	.	.	.	.	8b-\L	i	su-	.	.	.	.	.
8FF/ 8F	8B-/ 8a-X 8b-	.	4F\	kon	-sse	.	.	.	.	.	4a-X/	kon	-sse	.	8cc\J	.	.	.	.	.	.	.
8FF/J 8F	8B-/J 8a- 8b-	.	.	.	.	.	.	.	.	.	.	.	.	.	8dd-X\	ka	-sse	.	.	.	.	.
!LO:LB:g=original	!LO:LB:g=original	!LO:LB:g=original	!	!	!	!	!	!	!	!	!	!LO:LB:g=original	!	!	!	!LO:LB:g=original	!	!	!	!	!	!
=66	=66	=66	=66	=66	=66	=66	=66	=66	=66	=66	=66	=66	=66	=66	=66	=66	=66	=66	=66	=66	=66	=66
*xywh-#10:423,3100,2410,517	*xywh-#10:423,3100,2410,517	*	*xywh-#10:506,2844,2327,256	*	*	*	*xywh-#10:506,2575,2333,269	*	*	*	*xywh-#10:503,2287,2335,288	*	*	*	*xywh-#10:503,1978,2375,333	*	*	*	*	*	*	*
8EE-/L 8E-	8B-/L 8g-X 8b-	.	(2E-\	wa-	Luf-	.	2r	.	.	.	(2g-X/	wa-	Luf-	.	4gg-X\	li-	Luf-	.	1ryy	.	.	.
8EE-/ 8E-	8B-/ 8g- 8b-	.	.	.	.	.	.	.	.	.	.	.	.	.	.	.	.	.	.	.	.	.
8EE-/ 8E-	8B-/ 8g- 8b-	.	.	.	.	.	.	.	.	.	.	.	.	.	4cc\	-ny,	-te,	.	.	.	.	.
8EE-/J 8E-	8B-/J 8g- 8b-	.	.	.	.	.	.	.	.	.	.	.	.	.	.	.	.	.	.	.	.	.
8AA-X/L 8A-X	8c/L 8g- 8cc	.	4A-X\)	li-	.	.	8r	.	.	.	4cc\)	-li-	.	.	2r	.	.	.	.	.	.	.
8AA-/ 8A-	8c/ 8g- 8cc	<	.	.	.	.	8c\L	Za-	su-	.	.	.	.	.	.	.	.	.	.	.	.	.
8GG-X/ 8G-X	8c/ 8b- 8cc	.	4G-X\	-je	-te	.	8d-X\J	.	.	.	4b-\	-je	-te	.	.	.	.	.	.	.	.	.
8GG-/J 8G-	8c/J 8b- 8cc	.	.	.	.	.	8e-\	-słu-	-sse	.	.	.	.	.	.	.	.	.	.	.	.	.
=67	=67	=67	=67	=67	=67	=67	=67	=67	=67	=67	=67	=67	=67	=67	=67	=67	=67	=67	=67	=67	=67	=67
!	!	!	!	!	!	!LO:DY:a	!	!	!	!LO:DY:a	!	!	!	!LO:DY:a	!	!	!	!	!	!	!	!
8FF/L 8F	8dn/L 8a-X 8cc-X 8ddn	.	4F\	Za-	sie	<	4a-X\	-cha-	Luf-	<	4a-X/	Za-	sie	<	2r	.	.	.	1ryy	.	.	.
8FF/ 8F	8d/ 8a- 8cc- 8dd	.	.	.	.	.	.	.	.	.	.	.	.	.	.	.	.	.	.	.	.	.
8EE-/ 8E-	8e-/ 8a- 8cc- 8ee-	.	4E-\	-słu-	um	.	[4c-X\	-ne	-te	.	4g-X/	-słu-	um	.	.	.	.	.	.	.	.	.
8EE-/J 8E-	8e-/J 8a- 8cc- 8ee-	[	.	.	.	.	.	.	.	.	.	.	.	.	.	.	.	.	.	.	.	.
8DDn/ 8Dn	8f\ 8cc- 8ff	.	(4Dn\	-cha-	chwe-	[	8c-\]	.	.	[	(4f/	-cha-	chwe-	[	8r	.	.	.	.	.	.	.
!	!	!	!	!	!	!	!	!	!	!	!	!	!	!	!	!	!	!LO:DY:a	!	!	!	!
(8D\L 8A-X	(8f/L 8cc-	.	.	.	.	.	8A-X/L	w pieśń	sie	.	.	.	.	.	8cc-X\L	Za-	Vol-	<	.	.	.	.
8F\) 8B-	8d/) 8b-	.	4F\)	-ne	.	.	8B-/J	.	.	.	4dn/)	-ne	.	.	8b-\J	.	.	.	.	.	.	.
8F'\J 8c-X	8d'/J 8a-	.	.	.	.	.	8c-\	pta-	um-	.	.	.	.	.	8a-X/	-słu-	-ten	[[	.	.	.	.
=68	=68	=68	=68	=68	=68	=68	=68	=68	=68	=68	=68	=68	=68	=68	=68	=68	=68	=68	=68	=68	=68	=68
!	!	!	!	!	!	!LO:DY:a	!	!	!	!LO:DY:a	!	!	!	!LO:DY:a	!	!	!	!LO:DY:a	!	!	!	!
((4E-\ 4c-X	[4e-/ [4g-X	>	[4E-\	w pieśń,	-ben,	>	4c-X\	-szy-	-chwe-	>	4e-/	w pieśń,	-ben,	>	4g-X/	-cha-	Ruh-	>	1ryy	.	.	.
8E-\L)) 8B-	8e-/L] 8g-]	]	8E-\]	.	.	]	8B-\	-ny	-ben,	]	8e-/	.	.	]	8g-/	-ne	-rung	]	.	.	.	.
!	!	!	!LO:PB:g=original	!	!	!	!LO:PB:g=original	!	!	!	!	!	!	!	!LO:PB:g=original	!	!	!	!	!	!	!
8EE-\J 8E-	8B-/J 8e- 8g-	.	8r	.	.	.	8r	.	.	.	8r	.	.	.	8r	.	.	.	.	.	.	.
8EE-/L 8E-	8B-/L 8d-X 8g-	.	2r	.	.	.	2r	.	.	.	2r	.	.	.	8r	.	.	.	.	.	.	.
!	!	!	!	!LO:PB:g=original	!	!	!	!LO:PB:g=original	!	!	!	!	!	!	!	!	!	!LO:DY:a	!	!	!	!
8EE-/ 8E-	8B-/ 8d- 8g-	.	.	.	.	.	.	.	.	.	.	.	.	.	8dd-X\L	w pieśń	sie	<	.	.	.	.
8EEn/ 8En	8B-/ 8d- 8g-	.	.	.	.	.	.	.	.	.	.	.	.	.	8ccn\J	.	.	.	.	.	.	.
8EE/J 8E	8B-/J 8d- 8g-	.	.	.	.	.	.	.	.	.	.	.	.	.	8b-\	pta	er	[[	.	.	.	.
!LO:PB:g=original	!LO:PB:g=original	!	!	!	!	!	!	!	!	!	!	!	!	!	!	!LO:PB:g=original	!	!	!	!	!	!
=69	=69	=69	=69	=69	=69	=69	=69	=69	=69	=69	=69	=69	=69	=69	=69	=69	=69	=69	=69	=69	=69	=69
*xywh-#11:336,1354,2413,480	*xywh-#11:336,1354,2413,480	*	*xywh-#11:336,1175,2376,178	*	*	*	*xywh-#11:386,921,2326,254	*	*	*	*xywh-#11:386,703,2310,217	*	*	*	*xywh-#11:383,395,2313,307	*	*	*	*	*	*	*
8FF/ 8F	(16B-/LL 16d-X 16f	.	1r	.	.	.	2r	.	.	.	1r	.	.	.	4gg-X\	.	.	>	1ryy	.	.	.
.	16F/	pp	.	.	.	.	.	.	.	.	.	.	.	.	.	.	.	.	.	.	.	.
8r	16B-/	.	.	.	.	.	.	.	.	.	.	.	.	.	.	.	.	.	.	.	.	.
.	16d-/JJ	.	.	.	.	.	.	.	.	.	.	.	.	.	.	.	.	.	.	.	.	.
4r	16f/LL	.	.	.	.	.	.	.	.	.	.	.	.	.	4ff\	.	.	]	.	.	.	.
.	16f/	.	.	.	.	.	.	.	.	.	.	.	.	.	.	.	.	.	.	.	.	.
.	16b-/	.	.	.	.	.	.	.	.	.	.	.	.	.	.	.	.	.	.	.	.	.
.	16dd-X/JJ	.	.	.	.	.	.	.	.	.	.	.	.	.	.	.	.	.	.	.	.	.
8r	8ff/L)	.	.	.	.	.	8r	.	.	.	.	.	.	.	2r	.	.	.	.	.	.	.
!	!	!	!	!	!	!	!	!	!	!LO:DY:a	!	!	!	!	!	!	!	!	!	!	!	!
(8FF/L 8F	([8B-/ [8d- 8f	<	.	.	.	.	8d-X\L	w pieśń	sie	<	.	.	.	.	.	.	.	.	.	.	.	.
8EEn/) 8En	8B-/]) 8d-] 8g	.	.	.	.	.	8c\J	.	.	.	.	.	.	.	.	.	.	.	.	.	.	.
8EE'/J 8E	8B-'/J 8d- 8g	[[	.	.	.	.	8B-\	pta-	er-	[[	.	.	.	.	.	.	.	.	.	.	.	.
=70	=70	=70	=70	=70	=70	=70	=70	=70	=70	=70	=70	=70	=70	=70	=70	=70	=70	=70	=70	=70	=70	=70
8FF/ 8F	16B-/LL 16d-X 16f	.	2r	.	.	.	4g-X\	-szy-	-be-	>	2r	.	.	.	2r	.	.	.	1ryy	.	.	.
.	(16F/	>	.	.	.	.	.	.	.	.	.	.	.	.	.	.	.	.	.	.	.	.
8r	16B-/	.	.	.	.	.	.	.	.	.	.	.	.	.	.	.	.	.	.	.	.	.
.	16d-/JJ	.	.	.	.	.	.	.	.	.	.	.	.	.	.	.	.	.	.	.	.	.
4r	16f/LL	.	.	.	.	.	4f\	-ny	-ben	]	.	.	.	.	.	.	.	.	.	.	.	.
.	16f/	.	.	.	.	.	.	.	.	.	.	.	.	.	.	.	.	.	.	.	.	.
.	16b-/	.	.	.	.	.	.	.	.	.	.	.	.	.	.	.	.	.	.	.	.	.
.	16dd-X/JJ	.	.	.	.	.	.	.	.	.	.	.	.	.	.	.	.	.	.	.	.	.
!	!	!	!LO:TX:a:t=CHOR.	!	!	!	!LO:TX:a:t=Chór.	!	!	!	!	!	!	!	!LO:TX:a:t=Chór.	!	!	!	!	!	!	!
2r	8ff\)	.	4r	.	.	.	4r	.	.	.	4r	.	.	.	4r	.	.	.	.	.	.	.
.	8r	]	.	.	.	.	.	.	.	.	.	.	.	.	.	.	.	.	.	.	.	.
!	!	!	!	!	!	!LO:DY:a	!	!	!	!LO:DY:a	!LO:TX:a:t=CHÓR.	!	!	!LO:DY:a	!	!	!	!LO:DY:a	!	!	!	!
.	4r	.	8G-X\	.	.	pp	8d-X\	.	.	pp	8f/	Von	.	pp	8b-\	Chy-	.	pp	.	.	.	.
.	.	.	8G-\	.	.	.	8B-\	.	.	.	8f/	des	.	.	8dd-X\	-lą	.	.	.	.	.	.
=71	=71	=71	=71	=71	=71	=71	=71	=71	=71	=71	=71	=71	=71	=71	=71	=71	=71	=71	=71	=71	=71	=71
!	!	!	!	!	!	!LO:DY:a	!	!	!	!LO:DY:a	!	!	!	!LO:DY:a	!	!	!	!LO:DY:a	!	!	!	!
1r	1r	.	2.C/	.	.	<	(4A-X/	.	.	<	2.en/	Lied-	.	<	(4cc\	głów-	.	<	1ryy	.	.	.
.	.	.	.	.	.	.	2Gn/)	.	.	.	.	.	.	.	2b-\)	.	.	.	.	.	.	.
.	.	.	4C/	.	.	[[	4B-\	.	.	[[	4c/	-chens	.	[[	4en/	-kę	.	[[	.	.	.	.
=72	=72	=72	=72	=72	=72	=72	=72	=72	=72	=72	=72	=72	=72	=72	=72	=72	=72	=72	=72	=72	=72	=72
!	!	!	!	!	!	!LO:DY:a	!	!	!	!LO:DY:a	!	!	!	!LO:DY:a	!	!	!	!LO:DY:a	!	!	!	!
16r	4r	.	[2F\	.	.	>	(4B-\	.	.	>	[2c/ [2e-X	Klang!	.	>	(4g-X/	swą.	.	>	1ryy	.	.	.
(16FF/LL	.	.	.	.	.	.	.	.	.	.	.	.	.	.	.	.	.	.	.	.	.	.
16C/	.	.	.	.	.	.	.	.	.	.	.	.	.	.	.	.	.	.	.	.	.	.
16E-/JJ	.	.	.	.	.	.	.	.	.	.	.	.	.	.	.	.	.	.	.	.	.	.
8F\)	16r	.	.	.	.	.	[4An/)	.	.	.	.	.	.	.	[4f/)	.	.	.	.	.	.	.
.	(16A/LL	.	.	.	.	.	.	.	.	.	.	.	.	.	.	.	.	.	.	.	.	.
8r	16c/	.	.	.	.	.	.	.	.	.	.	.	.	.	.	.	.	.	.	.	.	.
.	16e-/JJ	.	.	.	.	.	.	.	.	.	.	.	.	.	.	.	.	.	.	.	.	.
4r	16a/LL	.	8F\]	.	.	]	8A/]	.	.	]	8c/] 8e-]	.	.	]	8f/]	.	.	]	.	.	.	.
.	16e-/	.	.	.	.	.	.	.	.	.	.	.	.	.	.	.	.	.	.	.	.	.
.	16a/	.	8r	.	.	.	8r	.	.	.	8r	.	.	.	8r	.	.	.	.	.	.	.
.	16cc/JJ	.	.	.	.	.	.	.	.	.	.	.	.	.	.	.	.	.	.	.	.	.
(4FF/	16ee-\LL	.	4r	.	.	.	4r	.	.	.	4r	.	.	.	4r	.	.	.	.	.	.	.
!LO:LB:g=original	!	!	!LO:LB:g=original	!	!	!	!LO:LB:g=original	!	!	!	!	!	!	!	!LO:LB:g=original	!	!	!	!	!	!	!
.	16ee-\	.	.	.	.	.	.	.	.	.	.	.	.	.	.	.	.	.	.	.	.	.
.	16aa\	.	.	.	.	.	.	.	.	.	.	.	.	.	.	.	.	.	.	.	.	.
.	16ccc\JJ	.	.	.	.	.	.	.	.	.	.	.	.	.	.	.	.	.	.	.	.	.
!	!LO:LB:g=original	!	!	!	!	!	!	!	!	!	!	!	!	!	!	!	!	!	!	!	!	!
=73||	=73||	=73||	=73||	=73||	=73||	=73||	=73||	=73||	=73||	=73||	=73||	=73||	=73||	=73||	=73||	=73||	=73||	=73||	=73||	=73||	=73||	=73||
*xywh-#11:362,3066,2336,577	*xywh-#11:362,3066,2336,577	*	*xywh-#11:362,2864,2363,202	*	*	*	*xywh-#11:383,2656,2342,207	*	*	*	*xywh-#11:383,2423,2381,233	*	*	*	*xywh-#11:372,2210,2392,212	*	*	*	*xywh-#11:372,1834,2376,375	*	*	*
*M3/4	*M3/4	*	*M3/4	*	*	*	*M3/4	*	*	*	*M3/4	*	*	*	*M3/4	*	*	*	*M3/4	*	*	*
!	!LO:TX:b:t=dolcissimo	!	!	!	!	!	!	!	!	!	!	!	!	!	!	!	!	!	!LO:TX:a:t=Tempo I.	!	!	!
8FFF/)	8eee-\L)	.	2.r	.	.	.	2.r	.	.	.	2.r	.	.	.	2.r	.	.	.	2.r	.	.	.
8r	(8gg\	.	.	.	.	.	.	.	.	.	.	.	.	.	.	.	.	.	.	.	.	.
4r	8ee-\	.	.	.	.	.	.	.	.	.	.	.	.	.	.	.	.	.	.	.	.	.
.	8dd\	.	.	.	.	.	.	.	.	.	.	.	.	.	.	.	.	.	.	.	.	.
4r	8cc\	.	.	.	.	.	.	.	.	.	.	.	.	.	.	.	.	.	.	.	.	.
.	8b-\J	.	.	.	.	.	.	.	.	.	.	.	.	.	.	.	.	.	.	.	.	.
*clefG2	*	*	*	*	*	*	*	*	*	*	*	*	*	*	*	*	*	*	*	*	*	*
=74	=74	=74	=74	=74	=74	=74	=74	=74	=74	=74	=74	=74	=74	=74	=74	=74	=74	=74	=74	=74	=74	=74
8r	4a/)	.	2.r	.	.	.	2.r	.	.	.	2.r	.	.	.	2.r	.	.	.	2.r	.	.	.
(8g/L	.	.	.	.	.	.	.	.	.	.	.	.	.	.	.	.	.	.	.	.	.	.
8e-/	(8cc\L	.	.	.	.	.	.	.	.	.	.	.	.	.	.	.	.	.	.	.	.	.
8d/	8dd\	.	.	.	.	.	.	.	.	.	.	.	.	.	.	.	.	.	.	.	.	.
8c/	8ee-\	.	.	.	.	.	.	.	.	.	.	.	.	.	.	.	.	.	.	.	.	.
8B-/J	8g\J	.	.	.	.	.	.	.	.	.	.	.	.	.	.	.	.	.	.	.	.	.
=75	=75	=75	=75	=75	=75	=75	=75	=75	=75	=75	=75	=75	=75	=75	=75	=75	=75	=75	=75	=75	=75	=75
8A/)	8cc\)	.	2.r	.	.	.	2.r	.	.	.	2.r	.	.	.	2.r	.	.	.	2.r	.	.	.
*clefF4	*	*	*	*	*	*	*	*	*	*	*	*	*	*	*	*	*	*	*	*	*	*
(8G\L	8r	.	.	.	.	.	.	.	.	.	.	.	.	.	.	.	.	.	.	.	.	.
8E-\	(8A/L 8f	<	.	.	.	.	.	.	.	.	.	.	.	.	.	.	.	.	.	.	.	.
8D\	8B-/ 8g	.	.	.	.	.	.	.	.	.	.	.	.	.	.	.	.	.	.	.	.	.
8C\	8c/ 8a	.	.	.	.	.	.	.	.	.	.	.	.	.	.	.	.	.	.	.	.	.
8BB-\J	8d/J 8b-	[[	.	.	.	.	.	.	.	.	.	.	.	.	.	.	.	.	.	.	.	.
=76	=76	=76	=76	=76	=76	=76	=76	=76	=76	=76	=76	=76	=76	=76	=76	=76	=76	=76	=76	=76	=76	=76
*	*^	*	*	*	*	*	*	*	*	*	*	*	*	*	*	*	*	*	*	*	*	*
*	*	*^	*	*	*	*	*	*	*	*	*	*	*	*	*	*	*	*	*	*	*	*	*
*	*	*xywh-#11:362,3066,2336,577	*xywh-#11:362,3066,2336,577	*	*	*	*	*	*	*	*	*	*	*	*	*	*	*	*	*	*	*	*	*
8AA/L)	8e-/) 8cc	4ryy	2ryy	.	2.r	.	.	.	2.r	.	.	.	2.r	.	.	.	2.r	.	.	.	2.r	.	.	.
(8GG/	8r	.	.	.	.	.	.	.	.	.	.	.	.	.	.	.	.	.	.	.	.	.	.	.
8EE-/	(2f/	4F\	.	>	.	.	.	.	.	.	.	.	.	.	.	.	.	.	.	.	.	.	.	.
8DD/	.	.	.	.	.	.	.	.	.	.	.	.	.	.	.	.	.	.	.	.	.	.	.	.
8CC/	.	8G\L	4e-/	.	.	.	.	.	.	.	.	.	.	.	.	.	.	.	.	.	.	.	.	.
8FF/J	.	8A\J	.	.	.	.	.	.	.	.	.	.	.	.	.	.	.	.	.	.	.	.	.	.
*	*	*v	*v	*	*	*	*	*	*	*	*	*	*	*	*	*	*	*	*	*	*	*	*	*
=77	=77	=77	=77	=77	=77	=77	=77	=77	=77	=77	=77	=77	=77	=77	=77	=77	=77	=77	=77	=77	=77	=77	=77
!	!	!	!	!	!	!	!	!	!	!	!	!	!	!	!	!	!	!	!	!LO:TX:a:t=SOPR.SOLO.	!	!	!
!	!	!	!	!LO:TX:a:t=CHOR.	!	!	!LO:DY:a	!LO:TX:a:t=Chór.	!	!	!LO:DY:a	!LO:TX:a:t=CHOR.	!	!	!LO:DY:a	!LO:TX:a:t=Chór.	!	!	!LO:DY:a	!LO:TX:a:t=Sopr. Solo.	!	!	!LO:DY:a
4BBB-/)	16B-/LL) 16d 16f	4ryy	] pp	8BB-/	.	.	pp	8B-\	.	.	pp	8d/	In	.	pp	8f/	W księ-	.	pp	[2.ff\	W księ-	Ach!	p
!	!	!	!LO:PB:g=original	!	!	!	!	!	!	!	!	!	!	!	!	!	!	!	!	!	!LO:PB:g=original	!	!
.	16F/	.	.	.	.	.	.	.	.	.	.	.	.	.	.	.	.	.	.	.	.	.	.
.	16f/	.	.	8BB-/	.	.	.	8B-\	.	.	.	8d/	der	.	.	8f/	-ży-	.	.	.	.	.	.
.	16F/JJ	.	.	.	.	.	.	.	.	.	.	.	.	.	.	.	.	.	.	.	.	.	.
(4BBB-/	16c/LL	4c\	.	4BB-/	.	.	.	4A/	.	.	.	4c/	stil-	.	.	4f/	-co-	.	.	.	.	.	.
.	16F/	.	.	.	.	.	.	.	.	.	.	.	.	.	.	.	.	.	.	.	.	.	.
.	16f/	.	.	.	.	.	.	.	.	.	.	.	.	.	.	.	.	.	.	.	.	.	.
.	16F/JJ	.	.	.	.	.	.	.	.	.	.	.	.	.	.	.	.	.	.	.	.	.	.
(4BB-/)	16e-/LL	4e-\	.	4BB-/	.	.	.	4c\	.	.	.	4e-/	-len	.	.	4f/	-wą	.	.	.	.	.	.
!LO:PB:g=original	!	!LO:PB:g=original	!	!LO:PB:g=original	!	!	!	!LO:PB:g=original	!	!	!	!LO:PB:g=original	!	!	!	!LO:PB:g=original	!	!	!	!	!	!	!
.	16F/	.	.	.	.	.	.	.	.	.	.	.	.	.	.	.	.	.	.	.	.	.	.
.	16f/	.	.	.	.	.	.	.	.	.	.	.	.	.	.	.	.	.	.	.	.	.	.
.	16F/JJ	.	.	.	.	.	.	.	.	.	.	.	.	.	.	.	.	.	.	.	.	.	.
!	!LO:PB:g=original	!	!	!	!	!	!	!	!	!	!	!	!	!	!	!	!	!	!	!	!	!	!
=78	=78	=78	=78	=78	=78	=78	=78	=78	=78	=78	=78	=78	=78	=78	=78	=78	=78	=78	=78	=78	=78	=78	=78
*xywh-#12:493,1487,2418,485	*xywh-#12:493,1487,2418,485	*xywh-#12:493,1487,2418,485	*	*xywh-#12:517,1319,2394,168	*	*	*	*xywh-#12:517,1122,2333,197	*	*	*	*xywh-#12:493,924,2357,197	*	*	*	*xywh-#12:493,687,2439,237	*	*	*	*xywh-#12:479,388,2453,298	*	*	*
!	!	!	!	!	!	!	!	!	!	!	!	!	!	!	!	!	!	!	!	!	!	!	!LO:DY:a
4BB-\)	16d/LL	4d\	<	8BB-/	.	.	.	8B-\	.	.	.	8d/	Mon-	.	.	8f/	noc	.	.	2.ff\_	.	.	<[
.	16F/	.	.	.	.	.	.	.	.	.	.	.	.	.	.	.	.	.	.	.	.	.	.
.	16f/	.	.	8BB-/	.	.	.	8G/	.	.	.	8B-/	-des-	.	.	8f/	ma-	.	.	.	.	.	.
.	16F/JJ	.	.	.	.	.	.	.	.	.	.	.	.	.	.	.	.	.	.	.	.	.	.
!	!	!	!	!	!	!	!LO:DY:a	!	!	!	!LO:DY:a	!	!	!	!LO:DY:a	!	!	!	!LO:DY:a	!	!	!	!
(4BBB-\	16c/LL	4c\	.	4BB-/	.	.	<	4A/	.	.	<	4c/	-hel-	.	<	4f/	-jo-	.	<	.	.	.	.
.	16F/	.	.	.	.	.	.	.	.	.	.	.	.	.	.	.	.	.	.	.	.	.	.
.	16f/	.	.	.	.	.	.	.	.	.	.	.	.	.	.	.	.	.	.	.	.	.	.
.	16c/JJ	.	.	.	.	.	.	.	.	.	.	.	.	.	.	.	.	.	.	.	.	.	.
[4BB-\)	16e-/LL	4e-\	.	4BB-/	.	.	.	4c\	.	.	.	4e-/	-le	.	.	4f/	-wą	.	.	.	.	.	.
.	16F/	.	.	.	.	.	.	.	.	.	.	.	.	.	.	.	.	.	.	.	.	.	.
.	16f/	.	.	.	.	.	.	.	.	.	.	.	.	.	.	.	.	.	.	.	.	.	.
.	16F/JJ	.	.	.	.	.	.	.	.	.	.	.	.	.	.	.	.	.	.	.	.	.	.
=79	=79	=79	=79	=79	=79	=79	=79	=79	=79	=79	=79	=79	=79	=79	=79	=79	=79	=79	=79	=79	=79	=79	=79
4BB-\]	16d/LL	8d\	[ <	8BB-/	.	.	.	8B-\	.	.	.	8d/	trau-	.	.	8f/	o-	.	.	2.ff\_	.	.	.
.	16F/	.	.	.	.	.	.	.	.	.	.	.	.	.	.	.	.	.	.	.	.	.	.
.	16f/	8ryy	.	8BB-/	.	.	.	8e-\	.	.	.	8c/	-men	.	.	8f/	-twórz	.	.	.	.	.	.
.	16F/JJ	.	.	.	.	.	.	.	.	.	.	.	.	.	.	.	.	.	.	.	.	.	.
(4GG\	16d/LL	4ryy	.	4G\	.	.	[	4d\	.	.	[	4B-/	lass	.	[	8b-/L	ser-	.	[	.	.	.	.
.	16B-/	.	.	.	.	.	.	.	.	.	.	.	.	.	.	.	.	.	.	.	.	.	.
.	16b-/	.	.	.	.	.	.	.	.	.	.	.	.	.	.	8a/J	.	.	.	.	.	.	.
.	16B-/JJ	.	.	.	.	.	.	.	.	.	.	.	.	.	.	.	.	.	.	.	.	.	.
4E-\	16b-/LL	8b-\L	.	4E-\	.	.	.	4G/	.	.	.	4g/	dein	.	.	8b-\L	-ce	.	.	.	.	.	.
.	16g/	.	.	.	.	.	.	.	.	.	.	.	.	.	.	.	.	.	.	.	.	.	.
.	16cc/	8cc\J	.	.	.	.	.	.	.	.	.	.	.	.	.	8cc\J	.	.	.	.	.	.	.
.	16g/JJ	.	.	.	.	.	.	.	.	.	.	.	.	.	.	.	.	.	.	.	.	.	.
=80	=80	=80	=80	=80	=80	=80	=80	=80	=80	=80	=80	=80	=80	=80	=80	=80	=80	=80	=80	=80	=80	=80	=80
!	!	!	!	!	!	!	!LO:DY:a	!	!	!	!LO:DY:a	!	!	!	!LO:DY:a	!	!	!	!LO:DY:a	!	!	!	!
4D\)	16a/LL	4a\	[	[4D\	.	.	>	[4A/	.	.	>	[4f/	Herz,	.	>	[4dd\	twe.	.	>	4.ff\]	.	.	.
.	16f/	.	.	.	.	.	.	.	.	.	.	.	.	.	.	.	.	.	.	.	.	.	.
.	16dd/	.	.	.	.	.	.	.	.	.	.	.	.	.	.	.	.	.	.	.	.	.	.
.	16f/JJ	.	.	.	.	.	.	.	.	.	.	.	.	.	.	.	.	.	.	.	.	.	.
(2DD/	16a/LL	2ryy	>	8D\]	.	.	]	8A/]	.	.	]	8f/]	.	.	]	8dd\]	.	.	]	.	.	.	.
.	16f/	.	.	.	.	.	.	.	.	.	.	.	.	.	.	.	.	.	.	.	.	.	.
!LO:LB:g=original	!	!LO:LB:g=original	!	!	!	!	!	!	!	!	!	!	!	!	!	!	!	!	!	!	!	!	!LO:DY:a
.	16dd/	.	.	8r	.	.	.	8r	.	.	.	8r	.	.	.	8r	.	.	.	8ee-\	-ży-	in	>
.	16f/JJ	.	.	.	.	.	.	.	.	.	.	.	.	.	.	.	.	.	.	.	.	.	.
.	16a/LL	.	.	4r	.	.	.	4r	.	.	.	4r	.	.	.	4r	.	.	.	8dd\	-co-	stil-	.
!	!	!	!	!LO:LB:g=original	!	!	!	!LO:LB:g=original	!	!	!	!LO:LB:g=original	!	!	!	!LO:LB:g=original	!	!	!	!	!	!	!
.	16f/	.	.	.	.	.	.	.	.	.	.	.	.	.	.	.	.	.	.	.	.	.	.
.	16dd/	.	.	.	.	.	.	.	.	.	.	.	.	.	.	.	.	.	.	8cc\	-wą	-ler	]]
!	!	!	!	!	!	!	!	!	!	!	!	!	!	!	!	!	!	!	!	!LO:LB:g=original	!	!	!
.	16f/JJ	.	.	.	.	.	.	.	.	.	.	.	.	.	.	.	.	.	.	.	.	.	.
!	!LO:LB:g=original	!	!	!	!	!	!	!	!	!	!	!	!	!	!	!	!	!	!	!	!	!	!
*	*v	*v	*	*	*	*	*	*	*	*	*	*	*	*	*	*	*	*	*	*	*	*	*
=81	=81	=81	=81	=81	=81	=81	=81	=81	=81	=81	=81	=81	=81	=81	=81	=81	=81	=81	=81	=81	=81	=81
*xywh-#12:450,3154,2407,447	*xywh-#12:450,3154,2407,447	*	*xywh-#12:477,2924,2381,229	*	*	*	*xywh-#12:477,2695,2397,229	*	*	*	*xywh-#12:477,2468,2397,226	*	*	*	*xywh-#12:477,2252,2399,216	*	*	*	*xywh-#12:493,1972,2368,296	*	*	*
!	!	!	!	!	!	!LO:DY:a	!	!	!	!LO:DY:a	!	!	!	!LO:DY:a	!	!	!	!LO:DY:a	!	!	!	!
4GG/)	16g/LL 16b-	]	8G\	.	.	p	8d\	.	.	p	8g/	in	.	p	8b-\	W księ-	.	p	4b-\	noc	Nacht	.
.	16d/	.	.	.	.	.	.	.	.	.	.	.	.	.	.	.	.	.	.	.	.	.
.	16dd/	.	8G\	.	.	.	8d\	.	.	.	8g/	der	.	.	8b-\	-ży-	.	.	.	.	.	.
.	16d/JJ	.	.	.	.	.	.	.	.	.	.	.	.	.	.	.	.	.	.	.	.	.
(4GG/	16g/LL 16a	.	4G\	.	.	.	4c\	.	.	.	4g/	stil-	.	.	4a/	-co-	.	.	4r	.	.	.
.	16c/	.	.	.	.	.	.	.	.	.	.	.	.	.	.	.	.	.	.	.	.	.
.	16cc/	.	.	.	.	.	.	.	.	.	.	.	.	.	.	.	.	.	.	.	.	.
.	16c/JJ	.	.	.	.	.	.	.	.	.	.	.	.	.	.	.	.	.	.	.	.	.
!	!	!	!	!	!	!	!	!	!	!	!	!	!	!	!	!	!	!	!	!	!	!LO:DY:a
[4G\)	16g/LL 16a	.	4G\	.	.	.	4e-\	.	.	.	4g/	-len	.	.	4cc\	-wą	.	.	[4gg\	o-	trau-	<
.	16e-/	.	.	.	.	.	.	.	.	.	.	.	.	.	.	.	.	.	.	.	.	.
.	16cc/	.	.	.	.	.	.	.	.	.	.	.	.	.	.	.	.	.	.	.	.	.
.	16e-/JJ	.	.	.	.	.	.	.	.	.	.	.	.	.	.	.	.	.	.	.	.	.
=82	=82	=82	=82	=82	=82	=82	=82	=82	=82	=82	=82	=82	=82	=82	=82	=82	=82	=82	=82	=82	=82	=82
4G\]	16g/LL 16b-	.	8G\	.	.	.	8d\	.	.	.	8g/	Mon-	.	.	8b-\	noc	.	.	2gg\]	.	.	.
.	16d/	.	.	.	.	.	.	.	.	.	.	.	.	.	.	.	.	.	.	.	.	.
.	16dd/	.	8G\	.	.	.	8d\	.	.	.	8g/	-des	.	.	8b-\	ma-	.	.	.	.	.	.
.	16d/JJ	.	.	.	.	.	.	.	.	.	.	.	.	.	.	.	.	.	.	.	.	.
(4GG/	16g/LL 16a	.	4G\	.	.	.	4c\	.	.	.	4g/	hel-	.	.	4a/	-jo-	.	.	.	.	.	.
.	16c/	.	.	.	.	.	.	.	.	.	.	.	.	.	.	.	.	.	.	.	.	.
.	16cc/	.	.	.	.	.	.	.	.	.	.	.	.	.	.	.	.	.	.	.	.	.
.	16c/JJ	.	.	.	.	.	.	.	.	.	.	.	.	.	.	.	.	.	.	.	.	.
[4G\)	16f#X/LL 16a	.	4G\	.	.	.	4A/	.	.	.	4f#X/	-le	.	.	4ee-\	-wą	.	.	4ee-\	-twór	-men	[
.	16e-/	.	.	.	.	.	.	.	.	.	.	.	.	.	.	.	.	.	.	.	.	.
.	16cc/	.	.	.	.	.	.	.	.	.	.	.	.	.	.	.	.	.	.	.	.	.
.	16e-/JJ	.	.	.	.	.	.	.	.	.	.	.	.	.	.	.	.	.	.	.	.	.
=83	=83	=83	=83	=83	=83	=83	=83	=83	=83	=83	=83	=83	=83	=83	=83	=83	=83	=83	=83	=83	=83	=83
*^	*	*	*	*	*	*	*	*	*	*	*	*	*	*	*	*	*	*	*	*	*	*
*	*xywh-#12:450,3154,2407,447	*	*	*	*	*	*	*	*	*	*	*	*	*	*	*	*	*	*	*	*	*	*
!	!	!	!	!	!	!	!LO:DY:a	!	!	!	!LO:DY:a	!	!	!	!LO:DY:a	!	!	!	!LO:DY:a	!	!	!	!LO:DY:a
8G/L]	4ryy	16g/LL 16b-	.	4.G\	o-	trau-	<	8B-\	o-	trau-	<	8g/L	trau-	.	<	4.dd\	o-	.	<	[2.dd\	ser-	lass-	<[
!	!	!	!	!	!	!	!	!	!	!	!	!	!	!	!	!	!	!	!	!LO:PB:g=original	!	!	!
.	.	16d/	.	.	.	.	.	.	.	.	.	.	.	.	.	.	.	.	.	.	.	.	.
8GG/J	.	16dd/	.	.	.	.	.	8c\	-twórz	-men	.	8a/	.	.	.	.	.	.	.	.	.	.	.
.	.	16d/JJ	.	.	.	.	.	.	.	.	.	.	.	.	.	.	.	.	.	.	.	.	.
8D/L	8GG\	16g/LL 16b-	.	.	.	.	.	4.d\	ser-	lass	.	8b-/J	.	.	.	.	.	.	.	.	.	.	.
.	.	16d/	.	.	.	.	.	.	.	.	.	.	.	.	.	.	.	.	.	.	.	.	.
(8A/	8r	16dd/	.	8A\	-twórz	-men	.	.	.	.	.	8a/	-men	.	.	8cc\	-twórz	.	.	.	.	.	.
.	.	16d/JJ	.	.	.	.	.	.	.	.	.	.	.	.	.	.	.	.	.	.	.	.	.
8B-/	4r	16g/LL 16b-	.	8B-\	ser-	lass	.	.	.	.	.	8g/	lass	.	.	8b-\	ser-	.	.	.	.	.	.
.	.	16d/	.	.	.	.	.	.	.	.	.	.	.	.	.	.	.	.	.	.	.	.	.
8c/J)	.	16dd/	.	8c\	-ce	dein	[[	8e-\	-ce	dein	[[	8f#X/	dein	.	[[	8a/	-ce	.	[[	.	.	.	.
!LO:PB:g=original	!LO:PB:g=original	!	!	!LO:PB:g=original	!	!	!	!LO:PB:g=original	!	!	!	!LO:PB:g=original	!	!	!	!LO:PB:g=original	!	!	!	!	!	!	!
.	.	16d/JJ	.	.	.	.	.	.	.	.	.	.	.	.	.	.	.	.	.	.	.	.	.
!	!	!LO:PB:g=original	!	!	!	!	!	!	!	!	!	!	!	!	!	!	!	!	!	!	!	!	!
*v	*v	*	*	*	*	*	*	*	*	*	*	*	*	*	*	*	*	*	*	*	*	*	*
=84	=84	=84	=84	=84	=84	=84	=84	=84	=84	=84	=84	=84	=84	=84	=84	=84	=84	=84	=84	=84	=84	=84
*xywh-#13:346,1651,2389,509	*xywh-#13:346,1651,2389,509	*	*xywh-#13:372,1440,2363,210	*	*	*	*xywh-#13:372,1236,2347,204	*	*	*	*xywh-#13:388,976,2331,259	*	*	*	*xywh-#13:388,745,2334,231	*	*	*	*xywh-#13:386,430,2336,315	*	*	*
(8B-\L	16g/LL 16b-	.	8G\L	.	.	.	8d\L	.	.	.	8g/L	Herz,	.	.	8b-\L	twe	.	.	8dd\]	.	.	.
.	16d/	.	.	.	.	.	.	.	.	.	.	.	.	.	.	.	.	.	.	.	.	.
8A\J	16dd/	.	8F\J	.	.	.	8c\J	.	.	.	8a/J	.	.	.	8cc\J	.	.	.	8ff#X\	-ce	-mein	.
.	16d/JJ	.	.	.	.	.	.	.	.	.	.	.	.	.	.	.	.	.	.	.	.	.
[4G\)	16g/LL 16b-	.	8E-\	.	.	.	8B-\	.	.	.	8b-\	in	.	.	8dd\	w księ-	.	.	4gg\	twe,	Herz,	.
.	16d/	.	.	.	.	.	.	.	.	.	.	.	.	.	.	.	.	.	.	.	.	.
.	16dd/	.	8F\	.	.	.	8c\	.	.	.	8a/	der	.	.	8cc\	-ży-	.	.	.	.	.	.
.	16d/JJ	.	.	.	.	.	.	.	.	.	.	.	.	.	.	.	.	.	.	.	.	.
8G\]	16b-\LL 16dd	.	8G\	.	.	.	8B-\	.	.	.	8g/	stil-	.	.	8dd\	-co-	.	.	8dd\	W księ-	in	.
.	16g\	.	.	.	.	.	.	.	.	.	.	.	.	.	.	.	.	.	.	.	.	.
8CC#X/ 8C#X	16b-\ 16een	.	8C#X/	.	.	.	8G/	.	.	.	8en/ 8b-	-len	.	.	8een\	-wą	.	.	8een\	-ży-	der	.
.	16g\JJ	.	.	.	.	.	.	.	.	.	.	.	.	.	.	.	.	.	.	.	.	.
=85	=85	=85	=85	=85	=85	=85	=85	=85	=85	=85	=85	=85	=85	=85	=85	=85	=85	=85	=85	=85	=85	=85
!	!	!	!	!	!	!LO:DY:a	!	!	!	!LO:DY:a	!	!	!	!LO:DY:a	!	!	!	!	!	!	!	!
8DD/ 8D	16a\LL 16ff	>	[4D\	.	.	>	[4F/	.	.	>	[4f/ [4a	Nacht.	.	>	[4ff\	noc.	.	.	(4.ff\	-co-	stil-	.
.	16f\	.	.	.	.	.	.	.	.	.	.	.	.	.	.	.	.	.	.	.	.	.
8r	16dd\	.	.	.	.	.	.	.	.	.	.	.	.	.	.	.	.	.	.	.	.	.
.	16f\JJ	.	.	.	.	.	.	.	.	.	.	.	.	.	.	.	.	.	.	.	.	.
(4DD/	16f/LL 16a	.	8D\]	.	.	]	8F/]	.	.	]	8f/] 8a]	.	.	]	8ff\]	.	.	.	.	.	.	.
.	16d/	.	.	.	.	.	.	.	.	.	.	.	.	.	.	.	.	.	.	.	.	.
!	!	!	!	!	!	!	!	!	!	!	!	!	!	!	!	!	!	!	!	!	!	!LO:DY:a
.	16dd/	.	8r	.	.	.	8r	.	.	.	8r	.	.	.	8r	.	.	.	8een\L	.	.	>
.	16d/JJ	.	.	.	.	.	.	.	.	.	.	.	.	.	.	.	.	.	.	.	.	.
[4D\)	16en/LL 16g	.	4r	.	.	.	4r	.	.	.	4r	.	.	.	4r	.	.	.	8dd\J)	.	.	.
.	16d/	.	.	.	.	.	.	.	.	.	.	.	.	.	.	.	.	.	.	.	.	.
.	16b-/	.	.	.	.	.	.	.	.	.	.	.	.	.	.	.	.	.	8b-\	-wą	-len	]]
.	16d/JJ	.	.	.	.	.	.	.	.	.	.	.	.	.	.	.	.	.	.	.	.	.
=86	=86	=86	=86	=86	=86	=86	=86	=86	=86	=86	=86	=86	=86	=86	=86	=86	=86	=86	=86	=86	=86	=86
*^	*	*	*	*	*	*	*	*	*	*	*	*	*	*	*	*	*	*	*	*	*	*
*	*xywh-#13:346,1651,2389,509	*	*	*	*	*	*	*	*	*	*	*	*	*	*	*	*	*	*	*	*	*	*
4D\_	4.ryy	16d/LL 16f	.	4r	.	.	.	4r	.	.	.	4r	.	.	.	4r	.	.	.	4a/	noc.	Nacht.	.
.	.	16A/	.	.	.	.	.	.	.	.	.	.	.	.	.	.	.	.	.	.	.	.	.
.	.	16a/	.	.	.	.	.	.	.	.	.	.	.	.	.	.	.	.	.	.	.	.	.
.	.	16A/JJ	.	.	.	.	.	.	.	.	.	.	.	.	.	.	.	.	.	.	.	.	.
8D\]	.	8d/ 8f	]	4r	.	.	.	4r	.	.	.	4r	.	.	.	4r	.	.	.	4r	.	.	.
(8D/L	4D\	8r	p	.	.	.	.	.	.	.	.	.	.	.	.	.	.	.	.	.	.	.	.
!	!	!	!	!	!	!	!	!	!	!	!	!	!	!	!	!	!	!	!	!LO:TX:a:t=CHÓR.	!	!	!
!	!	!	!	!	!	!	!LO:DY:a	!	!	!	!LO:DY:a	!	!	!	!LO:DY:a	!	!	!	!LO:DY:a	!LO:TX:a:t=Chór.	!	!	!LO:DY:a
8d/)	.	8f/L 8b-	.	8D\	.	.	p	8d\	.	.	p	8f/	Auf	.	p	8b-\	Daj	.	p	8b-\	Daj	Auf	p
8d/J	8D\	8f/J 8a	.	8D\	.	.	.	8d\	.	.	.	8f/	des	.	.	8a/	mu	.	.	8a/	mu	des	.
!LO:LB:g=original	!LO:LB:g=original	!LO:LB:g=original	!	!LO:LB:g=original	!	!	!	!LO:LB:g=original	!	!	!	!LO:LB:g=original	!	!	!	!LO:LB:g=original	!	!	!	!LO:LB:g=original	!	!	!
=87	=87	=87	=87	=87	=87	=87	=87	=87	=87	=87	=87	=87	=87	=87	=87	=87	=87	=87	=87	=87	=87	=87	=87
*	*	*^	*	*	*	*	*	*	*	*	*	*	*	*	*	*	*	*	*	*	*	*	*
*xywh-#13:372,3040,2363,598	*xywh-#13:372,3040,2363,598	*xywh-#13:372,3040,2363,598	*xywh-#13:372,3040,2363,598	*	*xywh-#13:367,2903,2331,191	*	*	*	*xywh-#13:354,2688,2344,215	*	*	*	*xywh-#13:354,2436,2363,252	*	*	*	*xywh-#13:346,2160,2371,275	*	*	*	*	*	*	*
!	!	!	!	!	!	!	!	!LO:DY:a	!	!	!	!	!	!	!	!	!	!	!	!LO:DY:a	!	!	!	!
(4d/	(2E-\	(8g/L	2g\	<	4.E-\	.	.	<	(4d\	.	.	.	(4f/	tru-	.	.	4.g/	ma-	.	<	2.ryy	.	.	.
.	.	8gg/	.	.	.	.	.	.	.	.	.	.	.	.	.	.	.	.	.	.	.	.	.	.
!	!	!	!	!	!	!	!	!	!	!	!	!LO:DY:a	!	!	!	!LO:DY:a	!	!	!	!	!	!	!	!
[4c/)	.	8ee-/	.	.	.	.	.	.	8c\)	.	.	<	8e-/)	.	.	<	.	.	.	.	.	.	.	.
.	.	8cc/	.	.	8E-\	.	.	.	8c\	.	.	.	8e-/	-ben	.	.	8g/	-rzyć,	.	.	.	.	.	.
8c/L]	8F\L)	8e-/) 8a	4ryy	.	8F\	.	.	.	8c\	.	.	.	8e-/	Win-	.	.	8a/	daj	.	.	.	.	.	.
8c/J	8F\J	8e-/J 8a	.	.	8F\	.	.	[[	8c\	.	.	[[	8e-/	-ters	.	[[	8a/	mu	.	[[	.	.	.	.
*v	*v	*	*	*	*	*	*	*	*	*	*	*	*	*	*	*	*	*	*	*	*	*	*	*
*	*v	*v	*	*	*	*	*	*	*	*	*	*	*	*	*	*	*	*	*	*	*	*	*
=88	=88	=88	=88	=88	=88	=88	=88	=88	=88	=88	=88	=88	=88	=88	=88	=88	=88	=88	=88	=88	=88	=88
!	!	!	!	!	!	!LO:DY:a	!	!	!	!LO:DY:a	!	!	!	!LO:DY:a	!	!	!	!LO:DY:a	!	!	!	!
16G/LL	((4e-/ 4cc	[	4G\	.	.	>	4A/	.	.	>	4e-/	Chwel-	.	>	4cc\	ma-	.	>	2.ryy	.	.	.
(16GG/	.	.	.	.	.	.	.	.	.	.	.	.	.	.	.	.	.	.	.	.	.	.
16D/	.	.	.	.	.	.	.	.	.	.	.	.	.	.	.	.	.	.	.	.	.	.
16G/JJ	.	.	.	.	.	.	.	.	.	.	.	.	.	.	.	.	.	.	.	.	.	.
8B-\L)	16d/LL)) 16b-	.	4G\	.	.	]	4B-\	.	.	]	4d/	-te,	.	]	4b-\	-rzyć,	.	]	.	.	.	.
.	(16d/	.	.	.	.	.	.	.	.	.	.	.	.	.	.	.	.	.	.	.	.	.
(8G\J	16g/	.	.	.	.	.	.	.	.	.	.	.	.	.	.	.	.	.	.	.	.	.
.	16b-/JJ	.	.	.	.	.	.	.	.	.	.	.	.	.	.	.	.	.	.	.	.	.
!	!	!	!	!	!	!LO:DY:a	!	!	!	!LO:DY:a	!	!	!	!LO:DY:a	!	!	!	!LO:DY:a	!	!	!	!
8F\L)	8a\L) 8dd	.	8F\	.	.	<	8f\	.	.	<	8a/	auf	.	<	8dd\	daj	.	<	.	.	.	.
8F\J 8f	8a\J 8cc	.	8F\	.	.	[[	8f\	.	.	[[	8a/	des	.	[[	8cc\	mu	.	[[	.	.	.	.
=89	=89	=89	=89	=89	=89	=89	=89	=89	=89	=89	=89	=89	=89	=89	=89	=89	=89	=89	=89	=89	=89	=89
*^	*^	*	*	*	*	*	*	*	*	*	*	*	*	*	*	*	*	*	*	*	*	*
*	*xywh-#13:372,3040,2363,598	*	*xywh-#13:372,3040,2363,598	*	*	*	*	*	*	*	*	*	*	*	*	*	*	*	*	*	*	*	*	*
(4f/	(2G\	(8b-/L	2b-\	.	4.G\	.	.	.	(4f\	.	.	.	(4a/	tru-	.	.	4.b-\	ma-	.	.	2.ryy	.	.	.
.	.	8bb-/	.	.	.	.	.	.	.	.	.	.	.	.	.	.	.	.	.	.	.	.	.	.
4.e-/)	.	8gg/	.	.	.	.	.	.	8e-\)	.	.	.	8g/)	.	.	.	.	.	.	.	.	.	.	.
.	.	8ee-/	.	.	8G\	.	.	.	8e-\	.	.	.	8g/	-ben	.	.	8b-\	-rzyć.	.	.	.	.	.	.
.	8A\L)	8g-X/) 8cc	4ryy	.	8A\	.	.	.	8e-\	.	.	.	8g-X/	Win-	.	.	8cc\	W je-	.	.	.	.	.	.
8e-/	8A\J	8g-/J 8cc	.	.	8A\	.	.	.	8e-\	.	.	.	8g-/	-ters	.	.	8cc\	-sień	.	.	.	.	.	.
*v	*v	*	*	*	*	*	*	*	*	*	*	*	*	*	*	*	*	*	*	*	*	*	*	*
*	*v	*v	*	*	*	*	*	*	*	*	*	*	*	*	*	*	*	*	*	*	*	*	*
=90	=90	=90	=90	=90	=90	=90	=90	=90	=90	=90	=90	=90	=90	=90	=90	=90	=90	=90	=90	=90	=90	=90
8B-\L 8c	8g-X\L 8ee-	.	8B-\	.	.	.	8c\	.	.	.	8g-X/	Schwel-	.	.	8ee-\	pło-	.	.	2.ryy	.	.	.
(8BB-\J	8f\J 8dd	.	8B-\	.	.	.	8d\	.	.	.	8f/	-le	.	.	8dd\	-wą	.	.	.	.	.	.
!	!	!	!	!	!	!LO:DY:a	!	!	!	!LO:DY:a	!	!	!	!LO:DY:a	!	!	!	!LO:DY:a	!	!	!	!
8B-\L)	(4.a-X\ 4.ff	.	4.D\	.	.	f	4.B-\	.	.	f	4.a-X/	wird	.	f	4.ff\	Bę-	.	f	.	.	.	.
!	!	!	!	!LO:PB:g=original	!	!	!	!LO:PB:g=original	!	!	!	!	!	!	!	!	!	!	!	!	!	!
8B-\	.	.	.	.	.	.	.	.	.	.	.	.	.	.	.	.	.	.	.	.	.	.
8B-\	.	.	.	.	.	.	.	.	.	.	.	.	.	.	.	.	.	.	.	.	.	.
8B-\J	8gn\ 8ee-	.	8E-\	.	.	.	8B-\	.	.	.	8gn/	der	.	.	8ee-\	-dziesz	.	.	.	.	.	.
!LO:PB:g=original	!LO:PB:g=original	!	!LO:PB:g=original	!	!	!	!LO:PB:g=original	!	!	!	!LO:PB:g=original	!	!	!	!LO:PB:g=original	!	!	!	!	!	!	!
=91	=91	=91	=91	=91	=91	=91	=91	=91	=91	=91	=91	=91	=91	=91	=91	=91	=91	=91	=91	=91	=91	=91
*^	*	*	*	*	*	*	*	*	*	*	*	*	*	*	*	*	*	*	*	*	*	*
*xywh-#14:485,1426,2559,536	*xywh-#14:485,1426,2559,536	*xywh-#14:485,1426,2559,536	*	*xywh-#14:485,1202,2466,224	*	*	*	*xywh-#14:498,967,2453,234	*	*	*	*xywh-#14:498,719,2440,248	*	*	*	*xywh-#14:551,402,2386,317	*	*	*	*	*	*	*
8B-/L	4.ryy	8f/L) 8dd	.	8E-\	.	.	.	8B-\	.	.	.	8f/	Len-	.	.	8dd\	ma-	.	.	2.r	.	.	.
8B-/	.	8e-/J 8cc	.	8G\	.	.	.	8B-\	.	.	.	8e-/	-zes-	.	.	8cc\	-rzeń	.	.	.	.	.	.
!	!	!	!	!	!	!	!LO:DY:a	!	!	!	!LO:DY:a	!	!	!	!LO:DY:a	!	!	!	!LO:DY:a	!	!	!	!
8B-/	.	(4.a-X\ 4.ff	.	4.D\	.	.	p	4.B-\	.	.	p	4.a-X/	-trau-	.	p	4.ff\	tych	.	p	.	.	.	.
(8BB-/	[4.BB-\	.	.	.	.	.	.	.	.	.	.	.	.	.	.	.	.	.	.	.	.	.	.
8D/	.	.	.	.	.	.	.	.	.	.	.	.	.	.	.	.	.	.	.	.	.	.	.
8E-/J	.	8g\ 8ee-	.	8E-\	.	.	.	8B-\	.	.	.	8g/	-me	.	.	8ee-\	po-	.	.	.	.	.	.
=92	=92	=92	=92	=92	=92	=92	=92	=92	=92	=92	=92	=92	=92	=92	=92	=92	=92	=92	=92	=92	=92	=92	=92
!	!	!	!	!	!	!	!LO:DY:a	!	!	!	!LO:DY:a	!	!	!	!LO:DY:a	!	!	!	!LO:DY:a	!	!	!	!
8F/L	2BB-\_	8f/L) 8dd	.	8F\	.	.	>	8B-\	.	.	>	8f/	Quel-	.	>	8dd\	-ło-	.	>	2.r	.	.	.
8G/	.	(8e-/ 8cc	.	8G\	.	.	.	8B-\	.	.	.	8e-/	-le	.	.	8cc\	-wą,	.	.	.	.	.	.
8A-X/	.	8d/ 8b-	.	8A-X\	.	.	.	8B-\	.	.	.	8d/	lin-	.	.	8b-\	Zło-	.	.	.	.	.	.
8F#X/	.	8e-/ 8a	.	8F#X\	.	.	.	8c\	.	.	.	8e-/	-dern	.	.	8a/	-cił	.	.	.	.	.	.
8G/)	4BB-\]	8d/) 8b-	.	8G\	.	.	.	8B-\	.	.	.	8d/	dei-	.	.	8b-\	chmur-	.	.	.	.	.	.
8EE-'/J 8E-	.	8g'/J 8cc	.	8E-\	.	.	]]	8G/	.	.	]]	8g/	-nen	.	]]	8cc\	-ne	.	]]	.	.	.	.
*v	*v	*	*	*	*	*	*	*	*	*	*	*	*	*	*	*	*	*	*	*	*	*	*
=93	=93	=93	=93	=93	=93	=93	=93	=93	=93	=93	=93	=93	=93	=93	=93	=93	=93	=93	=93	=93	=93	=93
4DD/ 4D	8f#X\L 8dd	.	2D\	.	.	.	2A/	.	.	.	2f#X/	Schmerz,	.	.	2dd\	dnie,	.	.	2.r	.	.	.
.	(8ff#X'\ 8aa	.	.	.	.	.	.	.	.	.	.	.	.	.	.	.	.	.	.	.	.	.
4r	8dd'\ 8ff#	.	.	.	.	.	.	.	.	.	.	.	.	.	.	.	.	.	.	.	.	.
.	8a'\ 8dd	.	.	.	.	.	.	.	.	.	.	.	.	.	.	.	.	.	.	.	.	.
((4DD/ 4D	8f#'\ 8a	.	4r	.	.	.	4r	.	.	.	4r	.	.	.	4r	.	.	.	.	.	.	.
.	8d'\J) 8f#	.	.	.	.	.	.	.	.	.	.	.	.	.	.	.	.	.	.	.	.	.
=94	=94	=94	=94	=94	=94	=94	=94	=94	=94	=94	=94	=94	=94	=94	=94	=94	=94	=94	=94	=94	=94	=94
[4CC/)) [4C	[4B-/ [4e- [4g	.	4r	.	.	.	4r	.	.	.	4r	.	.	.	4r	.	.	.	2.r	.	.	.
!	!	!	!	!	!	!LO:DY:a	!	!	!	!	!	!	!	!LO:DY:a	!	!	!	!LO:DY:a	!	!	!	!
!	!	!	!	!	!	!LO:DY:a	!	!	!	!LO:DY:a	!	!	!	!LO:DY:a	!	!	!	!LO:DY:a	!	!	!	!
8CC/] 8C]	8B-/] 8e-] 8g]	.	4C/	.	.	p <	4B-\	.	.	p <	8g/L	trau-	.	p <	4ee-\	o-	.	p <	.	.	.	.
!	!	!	!	!LO:LB:g=original	!	!	!	!LO:LB:g=original	!	!	!	!	!	!	!	!	!	!	!	!	!	!
8r	8r	.	.	.	.	.	.	.	.	.	8fn/J	.	.	.	.	.	.	.	.	.	.	.
4r	4r	.	4C/	.	.	[[	8c\L	.	.	.	8e-/L	-men	.	.	4g/	-twórz	.	[[	.	.	.	.
!LO:LB:g=original	!LO:LB:g=original	!	!LO:LB:g=original	!	!	!	!	!	!	!	!	!	!	!	!LO:LB:g=original	!	!	!	!	!	!	!
.	.	.	.	.	.	.	8B-\J	.	.	[[	8d/J	.	.	[[	.	.	.	.	.	.	.	.
!	!	!	!	!	!	!	!LO:LB:g=original	!	!	!	!LO:LB:g=original	!	!	!	!	!	!	!	!	!	!	!
=95	=95	=95	=95	=95	=95	=95	=95	=95	=95	=95	=95	=95	=95	=95	=95	=95	=95	=95	=95	=95	=95	=95
*xywh-#14:458,3004,2466,594	*xywh-#14:458,3004,2466,594	*	*xywh-#14:477,2791,2448,213	*	*	*	*xywh-#14:477,2591,2477,200	*	*	*	*xywh-#14:479,2314,2474,277	*	*	*	*xywh-#14:479,1962,2565,351	*	*	*	*	*	*	*
4r	4r	.	2F\	.	.	.	(4A/	.	.	.	2e-/	lass	.	.	(4cc\	ser-	.	.	2.ryy	.	.	.
4r	4r	.	.	.	.	.	4B-\)	.	.	.	.	.	.	.	4g/)	.	.	.	.	.	.	.
!	!	!	!	!	!	!LO:DY:a	!	!	!	!LO:DY:a	!	!	!	!LO:DY:a	!	!	!	!LO:DY:a	!	!	!	!
4FF/ 4F	4c/ 4e- 4a	p >	4F\	.	.	>]	4c\	.	.	>]	4e-/	dein	.	>]	4a/	-ce	.	>]	.	.	.	.
=96	=96	=96	=96	=96	=96	=96	=96	=96	=96	=96	=96	=96	=96	=96	=96	=96	=96	=96	=96	=96	=96	=96
*^	*	*	*	*	*	*	*	*	*	*	*	*	*	*	*	*	*	*	*	*	*	*
*	*xywh-#14:458,3004,2466,594	*	*	*	*	*	*	*	*	*	*	*	*	*	*	*	*	*	*	*	*	*	*
(8BBB-/L	2.BBB-\	4B-/ 4d 4b-	.	2BB-\ 2F	.	.	.	2B-\	.	.	.	2d/	Herz.	.	.	2b-\	twe,	.	.	2.ryy	.	.	.
8BB-/)	.	.	.	.	.	.	.	.	.	.	.	.	.	.	.	.	.	.	.	.	.	.	.
8BB-/	.	4r	] pp	.	.	.	.	.	.	.	.	.	.	.	.	.	.	.	.	.	.	.	.
8BB-/	.	.	.	.	.	.	.	.	.	.	.	.	.	.	.	.	.	.	.	.	.	.	.
!	!	!	!	!	!	!	!LO:DY:a	!	!	!	!LO:DY:a	!	!	!	!LO:DY:a	!	!	!	!LO:DY:a	!	!	!	!
8BB-/	.	(8b-'\L 8dd 8bb-	.	8BB-/	.	.	pp	8F#X/	.	.	pp	8d/	Auf	.	pp	8b-\	Daj	.	pp	.	.	.	.
8BB-/J	.	8a'\J) 8dd 8aa	.	8BB-/	.	.	.	8F#/	.	.	.	8d/	des	.	.	8b-\	mu	.	.	.	.	.	.
=97	=97	=97	=97	=97	=97	=97	=97	=97	=97	=97	=97	=97	=97	=97	=97	=97	=97	=97	=97	=97	=97	=97	=97
(8BBB-/L	2.BBB-\	4.g\ 4.ee- 4.gg	.	[2.BB-/	.	.	.	(2G/	.	.	.	[2.e-/	tru-	.	.	(2b-\	ma-	.	.	2.ryy	.	.	.
8BB-/)	.	.	.	.	.	.	.	.	.	.	.	.	.	.	.	.	.	.	.	.	.	.	.
8BB-/	.	.	.	.	.	.	.	.	.	.	.	.	.	.	.	.	.	.	.	.	.	.	.
8BB-/	.	(8g\L [8ee- 8gg	.	.	.	.	.	.	.	.	.	.	.	.	.	.	.	.	.	.	.	.	.
8BB-/	.	8a\) 8ee-] 8aa	.	.	.	.	.	4B-\	.	.	.	.	.	.	.	4a/	.	.	.	.	.	.	.
8BB-/J	.	8a\J 8ee- 8aa	.	.	.	.	.	.	.	.	.	.	.	.	.	.	.	.	.	.	.	.	.
=98	=98	=98	=98	=98	=98	=98	=98	=98	=98	=98	=98	=98	=98	=98	=98	=98	=98	=98	=98	=98	=98	=98	=98
(8BBB-/L	2.BBB-\	(4cc\ 4ee- 4ccc	.	4BB-/]	.	.	.	4F/)	.	.	.	4e-/]	.	.	.	4cc\)	.	.	.	2.ryy	.	.	.
8BB-/)	.	.	.	.	.	.	.	.	.	.	.	.	.	.	.	.	.	.	.	.	.	.	.
8BB-/	.	4b-\) 4dd 4bb-	.	4BB-/	.	.	.	4F/	.	.	.	4d/	-ben	.	.	4b-\	-rzyć.	.	.	.	.	.	.
8BB-/	.	.	.	.	.	.	.	.	.	.	.	.	.	.	.	.	.	.	.	.	.	.	.
8BB-/	.	(8dd'\L 8ff 8ddd	.	8BB-/	.	.	.	8A-X/	.	.	.	8d/	Win-	.	.	8f/ 8b-	W je-	.	.	.	.	.	.
8BB-/J	.	8cc'\J) 8ff 8ccc	.	8BB-/	.	.	.	8A-/	.	.	.	8d/	-ters	.	.	8f/ 8b-	-sień	.	.	.	.	.	.
=99	=99	=99	=99	=99	=99	=99	=99	=99	=99	=99	=99	=99	=99	=99	=99	=99	=99	=99	=99	=99	=99	=99	=99
*	*	*	*	*	*	*	*	*	*	*	*	*	*	*	*	*^	*	*	*	*	*	*	*
*	*	*	*	*	*	*	*	*	*	*	*	*	*	*	*	*	*xywh-#14:479,1962,2565,351	*	*	*	*	*	*	*
!	!	!	!	!	!	!	!LO:DY:a	!	!	!	!LO:DY:a	!	!	!	!LO:DY:a	!	!	!	!	!LO:DY:a	!	!	!	!
(8BBB-/L	2.BBB-\	4.b-\ 4.gg-X 4.bb-	.	2BB-/	.	.	<	2G-X/	.	.	<	2d-X/	Schwel-	.	<	2b-/	(4g-X\	pło-	.	<	2.ryy	.	.	.
!	!LO:PB:g=original	!	!	!	!	!	!	!	!	!	!	!	!	!	!	!	!	!	!	!	!	!	!	!
8BB-/)	.	.	.	.	.	.	.	.	.	.	.	.	.	.	.	.	.	.	.	.	.	.	.	.
8BB-/	.	.	.	.	.	.	.	.	.	.	.	.	.	.	.	.	4f\)	.	.	.	.	.	.	.
8BB-/	.	(8dd\L 8bb- 8ddd	.	.	.	.	.	.	.	.	.	.	.	.	.	.	.	.	.	.	.	.	.	.
8BB-/	.	8ee-\) 8bb- 8ccc	.	4C/	.	.	[[	4Gn/	.	.	[[	4c/	-le	.	[[	4b-/	4en\	-wą	.	.	.	.	.	.
!	!	!	!	!	!LO:PB:g=original	!	!	!	!LO:PB:g=original	!	!	!	!LO:PB:g=original	!	!	!	!LO:PB:g=original	!	!	!	!	!	!	!
8BB-/J	.	8ee-\J 8bb- 8ccc	.	.	.	.	.	.	.	.	.	.	.	.	.	.	.	.	.	.	.	.	.	.
!LO:PB:g=original	!	!LO:PB:g=original	!	!	!	!	!	!	!	!	!	!	!	!	!	!	!	!	!	!	!	!	!	!
=100	=100	=100	=100	=100	=100	=100	=100	=100	=100	=100	=100	=100	=100	=100	=100	=100	=100	=100	=100	=100	=100	=100	=100	=100
*xywh-#15:396,1464,2363,593	*xywh-#15:396,1464,2363,593	*xywh-#15:396,1464,2363,593	*	*xywh-#15:396,1241,2386,223	*	*	*	*xywh-#15:454,1034,2329,207	*	*	*	*xywh-#15:454,766,2297,267	*	*	*	*xywh-#15:401,422,2350,343	*xywh-#15:401,422,2350,343	*	*	*	*	*	*	*
!	!	!	!	!	!	!	!LO:DY:a	!	!	!	!LO:DY:a	!	!	!	!	!	!	!	!	!LO:DY:a	!	!	!	!
(8BBB-/L	2.BBB-\	(4ee-\ [4ccc-X 4eee-	.	(2F\	.	.	>	[2A-X/	.	.	>	(4c-X/	wird	.	.	(2a-X/	(4e-X\	Bę-	.	[ >	2.ryy	.	.	.
8BB-/)	.	.	.	.	.	.	.	.	.	.	.	.	.	.	.	.	.	.	.	.	.	.	.	.
!	!	!	!	!	!	!	!	!	!	!	!	!	!	!	!LO:DY:a	!	!	!	!	!	!	!	!	!
8BB-/	.	8ddn\L) 8ccc-] 8dddn	.	.	.	.	.	.	.	.	.	[4B-/)	.	.	>	.	(4dn\)	.	.	.	.	.	.	.
8BB-/	.	(8dd'\ 8bb- 8ddd	.	.	.	.	.	.	.	.	.	.	.	.	.	.	.	.	.	.	.	.	.	.
8BB-/	.	8ee-'\ 8ccc- 8eee-	.	8BB-/)	.	.	.	8A-/]	.	.	.	8B-/]	.	.	.	8g-X/)	8d\)	.	.	.	.	.	.	.
8BB-/J	.	8ff'\J) 8ddd 8fff	.	8BB-/	.	.	]]	8A-/	.	.	]]	8B-/	es	.	]]	8f/	8d\	dziesz	.	.	.	.	.	.
*	*	*	*	*	*	*	*	*	*	*	*	*	*	*	*	*v	*v	*	*	*	*	*	*	*
=101	=101	=101	=101	=101	=101	=101	=101	=101	=101	=101	=101	=101	=101	=101	=101	=101	=101	=101	=101	=101	=101	=101	=101
!	!	!	!	!	!	!	!LO:DY:a	!	!	!	!LO:DY:a	!	!	!	!LO:DY:a	!	!	!	!LO:DY:a	!	!	!	!
(8BBB-/L	2.BBB-\	4gg-X\ 4eee- 4ggg-X	<	2E-\	.	.	<	2G-X/	.	.	<	(4B-/	lin-	.	<	2e-/ 2g-X	zło-	.	] <	2.ryy	.	.	.
8BB-/)	.	.	.	.	.	.	.	.	.	.	.	.	.	.	.	.	.	.	.	.	.	.	.
8BB-/	.	(4cc-X'\ 4ee- 4ccc-X	.	.	.	.	.	.	.	.	.	4c-X/)	-lin-	.	.	.	.	.	.	.	.	.	.
8BB-/	.	.	.	.	.	.	.	.	.	.	.	.	.	.	.	.	.	.	.	.	.	.	.
8BB-/	.	4b-'\ 4gg- 4bb-	[[	4D-X\	.	.	[[	4G-/	.	.	[[	4B-/	-dern	.	[[	4e-/ 4g-	-cił	.	[[	.	.	.	.
8BB-/J	.	.	.	.	.	.	.	.	.	.	.	.	.	.	.	.	.	.	.	.	.	.	.
=102	=102	=102	=102	=102	=102	=102	=102	=102	=102	=102	=102	=102	=102	=102	=102	=102	=102	=102	=102	=102	=102	=102	=102
(8BBB-/L	2.BBB-\	4ee-'\) 4gg-X 4eee-	.	[2.C/	.	.	.	[2.G-X/	.	.	.	[2.B-/	man-	.	.	[2.e-/ [2.g-X	chmur-	.	.	2.ryy	.	.	.
8BB-/)	.	.	.	.	.	.	.	.	.	.	.	.	.	.	.	.	.	.	.	.	.	.	.
8BB-/	.	4r	.	.	.	.	.	.	.	.	.	.	.	.	.	.	.	.	.	.	.	.	.
8BB-/	.	.	.	.	.	.	.	.	.	.	.	.	.	.	.	.	.	.	.	.	.	.	.
8BB-/	.	[4g-X\ [4ee- [4gg-	.	.	.	.	.	.	.	.	.	.	.	.	.	.	.	.	.	.	.	.	.
8BB-/J	.	.	.	.	.	.	.	.	.	.	.	.	.	.	.	.	.	.	.	.	.	.	.
=103	=103	=103	=103	=103	=103	=103	=103	=103	=103	=103	=103	=103	=103	=103	=103	=103	=103	=103	=103	=103	=103	=103	=103
!	!	!	!	!	!	!	!LO:DY:a	!	!	!	!LO:DY:a	!	!	!	!LO:DY:a	!	!	!	!LO:DY:a	!	!	!	!
(8BBB-/L	2.BBB-\	4g-\] 4ee-] 4gg-]	.	2C/]	.	.	>	2G-/]	.	.	>	2B-/]	.	.	>	2e-/] 2g-]	.	.	>	2.ryy	.	.	.
8BB-/)	.	.	.	.	.	.	.	.	.	.	.	.	.	.	.	.	.	.	.	.	.	.	.
8BB-/	.	(4cn/ 4b- 4ccn	>	.	.	.	.	.	.	.	.	.	.	.	.	.	.	.	.	.	.	.	.
8BB-/	.	.	.	.	.	.	.	.	.	.	.	.	.	.	.	.	.	.	.	.	.	.	.
8BB-/	.	4e-/ 4a 4ee-	]]	4F\	.	.	]	4F/	.	.	]	4A/	-chen	.	]	4e-/ 4f	-ne	.	]]	.	.	.	.
8BB-/J	.	.	.	.	.	.	.	.	.	.	.	.	.	.	.	.	.	.	.	.	.	.	.
=104	=104	=104	=104	=104	=104	=104	=104	=104	=104	=104	=104	=104	=104	=104	=104	=104	=104	=104	=104	=104	=104	=104	=104
!	!	!	!	!	!	!	!LO:DY:a	!	!	!	!LO:DY:a	!	!	!	!LO:DY:a	!	!	!	!LO:DY:a	!	!	!	!
(8BBB-/L	2.BBB-\	8d/) 8b- 8dd	.	[4BB-/	.	.	pp	[4F/	.	.	pp	[4B-/	Schmerz,	.	pp	[4d/ [4f	dnie.	.	pp	2.ryy	.	.	.
!	!LO:LB:g=original	!	!	!	!	!	!	!	!	!	!	!	!	!	!	!	!	!	!	!	!	!	!
8BB-/)	.	8r	.	.	.	.	.	.	.	.	.	.	.	.	.	.	.	.	.	.	.	.	.
8BB-/	.	(4.a-X^\ 4.b- 4.ff	>	8BB-/]	.	.	.	8F/]	.	.	.	8B-/]	.	.	.	8d/] 8f]	.	.	.	.	.	.	.
!	!	!	!	!	!LO:LB:g=original	!	!	!	!LO:LB:g=original	!	!	!	!LO:LB:g=original	!	!	!	!	!	!	!	!	!	!
8BB-/	.	.	.	8r	.	.	.	8r	.	.	.	8r	.	.	.	8r	.	.	.	.	.	.	.
8BB-/	.	.	.	4r	.	.	.	4r	.	.	.	4r	.	.	.	4r	.	.	.	.	.	.	.
!	!	!	!	!LO:LB:g=original	!	!	!	!LO:LB:g=original	!	!	!	!	!	!	!	!LO:LB:g=original	!	!	!	!	!	!	!
8BB-/J	.	8g\) 8b- 8ee-	]]	.	.	.	.	.	.	.	.	.	.	.	.	.	.	.	.	.	.	.	.
!LO:LB:g=original	!	!LO:LB:g=original	!	!	!	!	!	!	!	!	!	!	!	!	!	!	!	!	!	!	!	!	!
=105	=105	=105	=105	=105	=105	=105	=105	=105	=105	=105	=105	=105	=105	=105	=105	=105	=105	=105	=105	=105	=105	=105	=105
*xywh-#15:422,3037,2352,601	*xywh-#15:422,3037,2352,601	*xywh-#15:422,3037,2352,601	*	*xywh-#15:435,2843,2339,194	*	*	*	*xywh-#15:435,2633,2347,210	*	*	*	*xywh-#15:441,2328,2342,304	*	*	*	*xywh-#15:441,2063,2334,265	*	*	*	*	*	*	*
(8BBB-/L	2.BBB-\	(8f'/L 8b- 8dd	.	2.r	.	.	.	2.r	.	.	.	2.r	.	.	.	2.r	.	.	.	2.ryy	.	.	.
8BB-/)	.	8e-'/J) 8b- 8cc	.	.	.	.	.	.	.	.	.	.	.	.	.	.	.	.	.	.	.	.	.
8BB-/	.	(4.a-X^\ 4.b- 4.ff	.	.	.	.	.	.	.	.	.	.	.	.	.	.	.	.	.	.	.	.	.
8BB-/	.	.	.	.	.	.	.	.	.	.	.	.	.	.	.	.	.	.	.	.	.	.	.
8BB-/	.	.	.	.	.	.	.	.	.	.	.	.	.	.	.	.	.	.	.	.	.	.	.
8BB-/J	.	8g\) 8b- 8ee-	.	.	.	.	.	.	.	.	.	.	.	.	.	.	.	.	.	.	.	.	.
=106	=106	=106	=106	=106	=106	=106	=106	=106	=106	=106	=106	=106	=106	=106	=106	=106	=106	=106	=106	=106	=106	=106	=106
(8BBB-/L	2.BBB-\	(8f/L 8b- 8dd	.	2.r	.	.	.	2.r	.	.	.	2.r	.	.	.	2.r	.	.	.	2.ryy	.	.	.
8BB-/)	.	8e-/J 8a 8ccn	.	.	.	.	.	.	.	.	.	.	.	.	.	.	.	.	.	.	.	.	.
8BB-/	.	8d/L) 8f 8b-	.	.	.	.	.	.	.	.	.	.	.	.	.	.	.	.	.	.	.	.	.
8BB-/	.	(8e-'/ 8g-X 8a	.	.	.	.	.	.	.	.	.	.	.	.	.	.	.	.	.	.	.	.	.
8BB-/	.	8d'/ 8f 8b-	.	.	.	.	.	.	.	.	.	.	.	.	.	.	.	.	.	.	.	.	.
8BB-/J	.	8en'/J 8gn 8cc	.	.	.	.	.	.	.	.	.	.	.	.	.	.	.	.	.	.	.	.	.
=107	=107	=107	=107	=107	=107	=107	=107	=107	=107	=107	=107	=107	=107	=107	=107	=107	=107	=107	=107	=107	=107	=107	=107
(8BBB-/L	[2.BBB-\	8f\L) 8b- 8dd	.	2.r	.	.	.	2.r	.	.	.	2.r	.	.	.	2.r	.	.	.	2.ryy	.	.	.
8BB-/)	.	(8g\ 8b- 8een	.	.	.	.	.	.	.	.	.	.	.	.	.	.	.	.	.	.	.	.	.
8BB-/	.	8a\) 8cc 8ff	.	.	.	.	.	.	.	.	.	.	.	.	.	.	.	.	.	.	.	.	.
8BB-/	.	(8cc'\ 8ee-X 8aa	.	.	.	.	.	.	.	.	.	.	.	.	.	.	.	.	.	.	.	.	.
8BB-/	.	8dd'\ 8ff 8bb-	.	.	.	.	.	.	.	.	.	.	.	.	.	.	.	.	.	.	.	.	.
8BB-/J	.	8ee-'\J 8aa 8ccc	.	.	.	.	.	.	.	.	.	.	.	.	.	.	.	.	.	.	.	.	.
*v	*v	*	*	*	*	*	*	*	*	*	*	*	*	*	*	*	*	*	*	*	*	*	*
=108	=108	=108	=108	=108	=108	=108	=108	=108	=108	=108	=108	=108	=108	=108	=108	=108	=108	=108	=108	=108	=108	=108
4BBB-/] 4BB-	4dd\) 4bb- 4ddd	.	4r	.	.	.	4r	.	.	.	4r	.	.	.	4r	.	.	.	2.ryy	.	.	.
4r	4r	.	4r	.	.	.	4r	.	.	.	4r	.	.	.	4r	.	.	.	.	.	.	.
!	!	!	!	!	!	!LO:DY:a	!	!	!	!LO:DY:a	!	!	!	!LO:DY:a	!	!	!	!LO:DY:a	!	!	!	!
4BBB-/ 4BB-	4F/ 4d 4f	ppp	8BB-/	.	.	ppp	8B-\	.	.	ppp	8d/	man-	.	ppp	8f/	Chmur-	.	ppp	.	.	.	.
.	.	.	8BB-/	.	.	.	8B-\	.	.	.	8d/	-chen	.	.	8f/	-ne	.	.	.	.	.	.
=109	=109	=109	=109	=109	=109	=109	=109	=109	=109	=109	=109	=109	=109	=109	=109	=109	=109	=109	=109	=109	=109	=109
2.BBB-;/ 2.BB-	2.d;/ 2.f 2.b-	.	2.BB-;/	.	.	.	2.F;/	.	.	.	2.d;/ 2.f	.	.	.	2.b-;\	dnie.	.	.	2.ryy	.	.	.
==	==	==	==	==	==	==	==	==	==	==	==	==	==	==	==	==	==	==	==	==	==	==
*-	*-	*-	*-	*-	*-	*-	*-	*-	*-	*-	*-	*-	*-	*-	*-	*-	*-	*-	*-	*-	*-	*-
!!!system-decoration: s1[(s2,s3,s4,s5)][(s6,s7)]
!!!ENC: Andrzej Gręziak
!!!END: 2022-03-26
!!!ENC: Julita Ruszuk
!!!END: 2022-03-30
!!!ENC-iiif: Olaf Gawdzik
!!!END-iiif: 2022-09-17
!!!YEC: Copyright 2022 Narodowy Instytut Fryderyka Chopina (https://polishscores.org)
!!!YEM: License CC-BY-4.0 (https://creativecommons.org/licenses/by/4.0)
